!!!COM: Beethoven
!!!OTL: 13 Variationen uber "Es war einmal ein alter Mann" aus "Das rote Kappchen" von K. Ditters von Dittersdorf
!!!Variation: Theme a
**function	**harm	**kern	**kern
*	*	*clefF4	*clefG2
*	*	*k[f#c#g#]	*k[f#c#g#]
*M2/4	*M2/4	*M2/4	*M2/4
*A:	*A:	*A:	*A:
8T	8V	8r	8e'
=1	=1	=1	=1
2T	2I	8r	8a'L
.	.	8r	8b'J
.	.	8A 8c#	8cc#'L
.	.	8r	8dd'J
=2	=2	=2	=2
2T	2Vb	8G# 8B	(8.eeL
.	.	8r	.
.	.	.	16ff#Jk)
.	.	8G# 8e	8ee'L
.	.	8r	8dd'J
=3	=3	=3	=3
4T	4I	8AL 8e	8cc#'L
.	.	8c#J	8a'J
8T	8viiob	8BL	8g#'L 8dd'
8T	8I	8AJ	8a'J 8cc#'
=4	=4	=4	=4
4.D	4.V	8E	(8aL 8cc#
.	.	8r	8g#J) 8b
.	.	8E	8r
*-	*-	*-	*-
!!!COM: Beethoven
!!!OTL: 13 Variationen uber "Es war einmal ein alter Mann" aus "Das rote Kappchen" von K. Ditters von Dittersdorf
!!!Variation: Theme a2
**function	**harm	**kern	**kern
*	*	*clefF4	*clefG2
*	*	*k[f#c#g#]	*k[f#c#g#]
*M2/4	*M2/4	*M2/4	*M2/4
*A:	*A:	*A:	*A:
8T	8V	8r	8e'
=5	=5	=5	=5
2T	2I	8A 8c#	8a'L
.	.	8r	8b'J
.	.	8A 8c#	8cc#'L
.	.	8r	8dd'J
=6	=6	=6	=6
2T	2Vb	8G# 8B	(8.eeL
.	.	8r	.
.	.	.	16ff#Jk)
.	.	8G# 8e	8ee'L
.	.	8r	8dd'J
=7	=7	=7	=7
4T	4I	8AL 8e	8cc#'L
.	.	8c#J	8a'J
8T	8viiob	8BL	8g#'L 8dd'
8T	8I	8AJ	8a'J 8cc#'
=8	=8	=8	=8
4.D	4.V	8E	(8aL 8cc#
.	.	8r	8g#J) 8b
.	.	8E	8r
*-	*-	*-	*-
!!!COM: Beethoven
!!!OTL: 13 Variationen uber "Es war einmal ein alter Mann" aus "Das rote Kappchen" von K. Ditters von Dittersdorf
!!!Variation: Theme b
**function	**harm	**kern	**kern
*	*	*clefF4	*clefG2
*	*	*k[f#c#g#]	*k[f#c#g#]
*M2/4	*M2/4	*M2/4	*M2/4
*A:	*A:	*A:	*A:
8T	8V	8r	8b'
=9	=9	=9	=9
2D	2Vb/V	8D# 8B	8b'L
.	.	8r	8cc#'J
.	.	8D# 8B	8b'L
.	.	8r	8a'J
=10	=10	=10	=10
2D	2V	8E 8B	(8.g#L
.	.	8r	.
.	.	.	16aJk)
.	.	8E 8B	8b'L
.	.	8r	8b'J
=11	=11	=11	=11
2D	2Vb/V	8D# 8B	8b'L
.	.	8r	8cc#'J
.	.	8D# 8B	8b'L
.	.	8r	8a'J
=12	=12	=12	=12
4.D	4.V	8E 8B	(8.g#L
.	.	8r	.
.	.	.	16aJk)
.	.	8r	8b'L
*-	*-	*-	*-
!!!COM: Beethoven
!!!OTL: 13 Variationen uber "Es war einmal ein alter Mann" aus "Das rote Kappchen" von K. Ditters von Dittersdorf
!!!Variation: Theme c
**function	**harm	**kern	**kern
*	*	*clefF4	*clefG2
*	*	*k[f#c#g#]	*k[f#c#g#]
*M2/4	*M2/4	*M2/4	*M2/4
*A:	*A:	*A:	*A:
8D	8Vb	8G# 8e	8b'J
=13	=13	=13	=13
4D	4IV/V	8A 8e	8cc#'L
.	.	8r	8ee'J
4D	4V/V	8B	8dd#'L
.	.	8r	8ff#'J
=14	=14	=14	=14
2D	2Ib/V	4G# 4B	8ee'L
.	.	.	8gg#'J
.	.	8r	8ee'L
.	.	8G# 8e	8b'J
=15	=15	=15	=15
4D	4IV/V	8A 8e	8cc#'L
.	.	8r	8ee'J
4D	4V/V	8B	8dd#'L
.	.	8r	8ff#'J
=16	=16	=16	=16
2D	2Ib/V	4G# 4B	8ee'L
.	.	.	8gg#'J
.	.	8r	8ee'L
.	.	8G# 8e	8b'J
=17	=17	=17	=17
4D	4IV/V	8A 8e	8cc#'L
.	.	8r	8ee'J
4D	4V/V	8B	8dd#'L
.	.	8r	8ff#'J
=18	=18	=18	=18
2D	2Ib/V	4G# 4B	8ee'L
.	.	.	8gg#'J
.	.	8r	8ee'L
.	.	8G# 8e	8b'J
=19	=19	=19	=19
4D	4IV/V	8A 8e	8cc#'L
.	.	8r	8ee'J
4D	4V/V	8B	8dd#'L
.	.	8r	8ff#'J
=20	=20	=20	=20
4D	4Ib/V	8G# 8B	8ee'L
.	.	8r	8gg#'J
4D	4V7b/V	8D# 8B	8ff#'L
.	.	8r	8aa'J
=21	=21	=21	=21
4D	4I/V	8EL	8gg#'L
.	.	8G#J	8ee'J
4D	4V/V	8BL	8b'L
.	.	8BBJ	8dd#'J
=22	=22	=22	=22
2D	2r	2r;	2r;
=23	=23	=23	=23
4.D	4.I/V	4E 4e	4g# 4ee
.	.	8r	8r
*-	*-	*-	*-
!!!COM: Beethoven
!!!OTL: 13 Variationen uber "Es war einmal ein alter Mann" aus "Das rote Kappchen" von K. Ditters von Dittersdorf
!!!Variation: Theme d
**function	**harm	**kern	**kern
*	*	*clefF4	*clefG2
*	*	*k[f#c#g#]	*k[f#c#g#]
*M2/4	*M2/4	*M2/4	*M2/4
*A:	*A:	*A:	*A:
8D	8V	8r	8ee'
=24	=24	=24	=24
4D	4V	4r	8ee'L
.	.	.	8ee'J
4D	4Vb/ii	8AA# 8A#	8ff#'L
.	.	8r	8cc#'J
=25	=25	=25	=25
4D	4ii	8BB 8B	8dd'L
.	.	8r	8b'J
4D	4Vb	8GG# 8G#	8ee'L
.	.	8r	8dd'J
=26	=26	=26	=26
2D	2I	8AAL 8A	8cc#'L
.	.	8C#J	8a'J
.	.	8BBL	8dd'L
.	.	8AAJ	8cc#'J
=27	=27	=27	=27
.	.	.	q8cc#
4.D	4.V	4E	(16bLL
.	.	.	16a
.	.	.	16b
.	.	.	16cc#JJ)
.	.	8r	8b'L
*-	*-	*-	*-
!!!COM: Beethoven
!!!OTL: 13 Variationen uber "Es war einmal ein alter Mann" aus "Das rote Kappchen" von K. Ditters von Dittersdorf
!!!Variation: Theme e
**function	**harm	**kern	**kern
*	*	*clefF4	*clefG2
*	*	*k[f#c#g#]	*k[f#c#g#]
*M2/4	*M2/4	*M2/4	*M2/4
*A:	*A:	*A:	*A:
8T	8V	8r	8e'J
=28	=28	=28	=28
2T	2I	4r	8a'L
.	.	.	8b'J
.	.	8A 8c# 8e	8cc#'L
.	.	8r	8dd'J
=29	=29	=29	=29
2T	2Vb	8G# 8B 8e	(8.eeL
.	.	8r	.
.	.	.	16ff#Jk)
.	.	8G# 8B 8e	8ee'L
.	.	8r	8dd'J
=30	=30	=30	=30
2T	2I	8A 8c# 8e	8cc#'L
.	.	8r	8b'J
.	.	8A 8c# 8e	8cc#'L
.	.	8r	8dd'J
=31	=31	=31	=31
2T	2Vb	8G# 8B 8e	(8.eeL
.	.	8r	.
.	.	.	16ff#Jk)
.	.	8G# 8B 8e	8ee'L
.	.	8r	8dd'J
=32	=32	=32	=32
4T	4I	8A 8e	8cc#'L
.	.	8r	8cc#'J
.	.	.	q8cc#
4D	4V	8E	(16bLL
.	.	.	16a
.	.	8r	16b
.	.	.	16cc#JJ)
=33	=33	=33	=33
8T	8I	8AAL 8A	8aL
8T	8IV	8DJ	(16aaL
.	.	.	16ff#JJ
8T	8Ib	8C#L	16ff#LL
.	.	.	16ee
8T	8IV	8DJ 8A	16ff#
.	.	.	16ddJJ)
=34	=34	=34	=34
4T	4Ic	8E 8A	8cc#'L
.	.	8r	8cc#'J
.	.	.	q8cc#
4T	4V	8E 8G#	(16bLL
.	.	.	16a
.	.	8r	16b
.	.	.	16cc#JJ)
=35	=35	=35	=35
8T	8I	8AAL 8A	8aL
8T	8IV	8DJ	(16aaL
.	.	.	16ff#JJ
8T	8Ib	8C#L	16ff#LL
.	.	.	16ee
8T	8IV	8DJ 8A	16ff#
.	.	.	16ddJJ)
=36	=36	=36	=36
4T	4Ic	8E 8A	8cc#'L
.	.	8r	8cc#'J
4T	4V	8E 8G#	(16bLL
.	.	.	16a
.	.	8r	16b
.	.	.	16cc#JJ)
=37	=37	=37	=37
4.T	4.I	8r	4a
.	.	8AL	.
.	.	8AAJ	4r
*-	*-	*-	*-
!!!COM: Beethoven
!!!OTL: 13 Variationen uber "Es war einmal ein alter Mann" aus "Das rote Kappchen" von K. Ditters von Dittersdorf
!!!Variation: Variation 1 a
**function	**harm	**kern	**kern
*	*	*clefF4	*clefG2
*	*	*k[f#c#g#]	*k[f#c#g#]
*M2/4	*M2/4	*M2/4	*M2/4
*A:	*A:	*A:	*A:
8T	8V	8r	8e
=38	=38	=38	=38
2T	2I	2A 2c# 2e	(16aLL
.	.	.	16cc#
.	.	.	16b
.	.	.	16ddJJ
.	.	.	16cc#LL
.	.	.	16ee
.	.	.	16dd
.	.	.	16ff#JJ)
=39	=39	=39	=39
2T	2V7b	2G# 2B 2e	(16ff#LL
.	.	.	16ee
.	.	.	16dd#
.	.	.	16eeJJ
.	.	.	16gg#LL
.	.	.	16ff#
.	.	.	16ee
.	.	.	16ddJJ)
=40	=40	=40	=40
2T	2I	2A 2e	(16ddLL
.	.	.	16cc#
.	.	.	16ee
.	.	.	16ddJJ
.	.	.	16ff#LL
.	.	.	16ee
.	.	.	16dd
.	.	.	16cc#JJ)
=41	=41	=41	=41
4.D	4.V	8r	(16cc#LL
.	.	.	16b
.	.	8EL	16a#
.	.	.	16bJJ)
.	.	8eJ	8r
*-	*-	*-	*-
!!!COM: Beethoven
!!!OTL: 13 Variationen uber "Es war einmal ein alter Mann" aus "Das rote Kappchen" von K. Ditters von Dittersdorf
!!!Variation: Variation 1 a2
**function	**harm	**kern	**kern
*	*	*clefF4	*clefG2
*	*	*k[f#c#g#]	*k[f#c#g#]
*M2/4	*M2/4	*M2/4	*M2/4
*A:	*A:	*A:	*A:
8T	8V	8r	8e
=42	=42	=42	=42
2T	2I	2A 2c# 2e	(16aLL
.	.	.	16cc#
.	.	.	16b
.	.	.	16ddJJ
.	.	.	16cc#LL
.	.	.	16ee
.	.	.	16dd
.	.	.	16ff#JJ)
=43	=43	=43	=43
2T	2V7b	2G# 2B 2e	(16ff#LL
.	.	.	16ee
.	.	.	16dd#
.	.	.	16eeJJ
.	.	.	16gg#LL
.	.	.	16ff#
.	.	.	16ee
.	.	.	16ddJJ)
=44	=44	=44	=44
2T	2I	2A 2e	(16ddLL
.	.	.	16cc#
.	.	.	16ee
.	.	.	16ddJJ
.	.	.	16ff#LL
.	.	.	16ee
.	.	.	16dd
.	.	.	16cc#JJ)
=45	=45	=45	=45
.	.	.	q8dd
4D	4Ic	8r	(16cc#LL
.	.	.	16b
.	.	8EL	16cc#
.	.	.	16eeJJ)
8D	8V	8eJ	8bL
*-	*-	*-	*-
!!!COM: Beethoven
!!!OTL: 13 Variationen uber "Es war einmal ein alter Mann" aus "Das rote Kappchen" von K. Ditters von Dittersdorf
!!!Variation: Variation 1 b
**function	**harm	**kern	**kern
*	*	*clefF4	*clefG2
*	*	*k[f#c#g#]	*k[f#c#g#]
*M2/4	*M2/4	*M2/4	*M2/4
*A:	*A:	*A:	*A:
8D	8V	8r	8bJ
=46	=46	=46	=46
2D	2V7b/V	2D# 2B	(16a#LL
.	.	.	16b
.	.	.	16cc#
.	.	.	16bJJ
.	.	.	16ff#LL
.	.	.	16dd#
.	.	.	16b
.	.	.	16aJJ)
=47	=47	=47	=47
2D	2V	2E 2B	(16g#LL
.	.	.	16a
.	.	.	16g#
.	.	.	16f#JJ
.	.	.	16g#LL
.	.	.	16a
.	.	.	16a#
.	.	.	16bJJ)
=48	=48	=48	=48
2D	2V7b/V	2D# 2B	(16a#LL
.	.	.	16b
.	.	.	16cc#
.	.	.	16bJJ
.	.	.	16ff#LL
.	.	.	16dd#
.	.	.	16b
.	.	.	16aJJ)
=49	=49	=49	=49
4.D	4.V	4E 4B	(16g#LL
.	.	.	16f#
.	.	.	16e
.	.	.	16f#JJ
.	.	8r	16g#LL
.	.	.	16a
*-	*-	*-	*-
!!!COM: Beethoven
!!!OTL: 13 Variationen uber "Es war einmal ein alter Mann" aus "Das rote Kappchen" von K. Ditters von Dittersdorf
!!!Variation: Variation 1 c
**function	**harm	**kern	**kern
*	*	*clefG2	*clefG2
*	*	*k[f#c#g#]	*k[f#c#g#]
*M2/4	*M2/4	*M2/4	*M2/4
*A:	*A:	*A:	*A:
8D	8Vb	(8G#	16a#
.	.	.	16bJJ)
=50	=50	=50	=50
4D	4ii7b/V	8AL	(16b#LL
.	.	.	16cc#
.	.	8f#J	16ee
.	.	.	16dd#JJ
4D	4V7/V	8BL	16cc##LL
.	.	.	16dd#
.	.	8aJ	16ff#
.	.	.	16eeJJ)
=51	=51	=51	=51
4.D	4.I/V	8eL	(16dd#LL
.	.	.	16ee
.	.	8g#J)	16gg#
.	.	.	16ff#JJ
.	.	8r	16eeLL
.	.	.	16dd#
*	*	*clefF4	*
8D	8Ib/V	(8GG#	16cc#
.	.	.	16bJJ)
=52	=52	=52	=52
4D	4ii7b/V	8AAL	(16b#LL
.	.	.	16cc#
.	.	8F#J	16ee
.	.	.	16dd#JJ
4D	4V7/V	8BBL	16cc##LL
.	.	.	16dd#
.	.	8AJ	16ff#
.	.	.	16eeJJ)
=53	=53	=53	=53
4.D	4.I/V	8EL	(16dd#LL
.	.	.	16ee
.	.	8G#J)	16gg#
.	.	.	16ff#JJ
.	.	8r	16eeLL
.	.	.	16gg#
*	*	*clefG2	*
8D	8Ib/V	(8G#	16bb
.	.	.	16bJJ)
=54	=54	=54	=54
4D	4iib/V	8AL	(16b#LL
.	.	.	16cc#
.	.	8f#J	16ee
.	.	.	16dd#JJ
4D	4V7/V	8BL	16cc##LL
.	.	.	16dd#
.	.	8aJ	16ff#
.	.	.	16eeJJ)
=55	=55	=55	=55
4.D	4.I/V	8eL	(16dd#LL
.	.	.	16ee
.	.	8g#J)	16gg#
.	.	.	16ff#JJ
.	.	8r	16eeLL
.	.	.	16dd#
*	*	*clefF4	*
8D	8Ib/V	(8GG#	16cc#
.	.	.	16bJJ)
=56	=56	=56	=56
4D	4ii7b/V	8AAL	(16b#LL
.	.	.	16cc#
.	.	8F#J	16ee
.	.	.	16dd#JJ
4D	4V7/V	8BBL	16cc##LL
.	.	.	16dd#
.	.	8AJ	16ff#
.	.	.	16eeJJ)
=57	=57	=57	=57
4D	4I/V	8EL	(16dd#LL
.	.	.	16ee
.	.	8G#J)	16gg#
.	.	.	16ff#JJ
4D	4V7b/V	(8D#L	16ee#LL
.	.	.	16ff#
.	.	8BJ	16aa
.	.	.	16gg#JJ)
=58	=58	=58	=58
4D	4I/V	8EL	(16ff##LL
.	.	.	16gg#
.	.	8BJ	16aa#
.	.	.	16bbJJ
4D	4V7/V	8BBL	16bbLL
.	.	.	16aa
.	.	8BJ)	16ff#
.	.	.	16dd#JJ)
=59	=59	=59	=59
2D	2r	2r;	2r;
=60	=60	=60	=60
4.D	4.I/V	(4.e	8r
.	.	.	(8ee
.	.	.	8eeeL)
*-	*-	*-	*-
!!!COM: Beethoven
!!!OTL: 13 Variationen uber "Es war einmal ein alter Mann" aus "Das rote Kappchen" von K. Ditters von Dittersdorf
!!!Variation: Variation 1 d
**function	**harm	**kern	**kern
*	*	*clefF4	*clefG2
*	*	*k[f#c#g#]	*k[f#c#g#]
*M2/4	*M2/4	*M2/4	*M2/4
*A:	*A:	*A:	*A:
8D	8V	8c#	8eee'J
=61	=61	=61	=61
2D	2V7b/ii	4.A#)	16eee'LL
.	.	.	(16ee
.	.	.	16ff#
.	.	.	16ggJJ
.	.	.	16ff#LL
.	.	.	16ee
.	.	(8A# 8f#	16dd
.	.	.	16cc#JJ)
=62	=62	=62	=62
4D	4ii	4.B)	(16ddLL
.	.	.	16ee
.	.	.	16ee#
.	.	.	16ff#JJ
4D	4V7b	.	16eeLL
.	.	.	16dd
.	.	(8G# 8e	16cc#
.	.	.	16bJJ)
=63	=63	=63	=63
4D	4I	8AL	(16cc#LL
.	.	.	16dd
.	.	8c#J	16dd#
.	.	.	16eeJJ
8D	8viiob	8BL	16g#LL
.	.	.	16dd
8D	8I	8AJ)	16a
.	.	.	16cc#JJ
=64	=64	=64	=64
4.D	4.V	8eL	16bLL
.	.	.	16g#
.	.	8EJ	16a
.	.	.	16cc#JJ)
.	.	8r	8b'L
*-	*-	*-	*-
!!!COM: Beethoven
!!!OTL: 13 Variationen uber "Es war einmal ein alter Mann" aus "Das rote Kappchen" von K. Ditters von Dittersdorf
!!!Variation: Variation 1 e
**function	**harm	**kern	**kern
*	*	*clefF4	*clefG2
*	*	*k[f#c#g#]	*k[f#c#g#]
*M2/4	*M2/4	*M2/4	*M2/4
*A:	*A:	*A:	*A:
8T	8V	8r	8e'J
=65	=65	=65	=65
2T	2I	2A 2c# 2e	(16aLL
.	.	.	16cc#
.	.	.	16b
.	.	.	16ddJJ
.	.	.	16cc#LL
.	.	.	16ee
.	.	.	16dd
.	.	.	16ff#JJ)
=66	=66	=66	=66
2T	2V7b	2G# 2B 2e	(16ff#LL
.	.	.	16ee
.	.	.	16dd#
.	.	.	16eeJJ
.	.	.	16gg#LL
.	.	.	16ff#
.	.	.	16ee
.	.	.	16ddJJ)
=67	=67	=67	=67
2T	2I	2A 2e	(16cc#LL
.	.	.	16dd
.	.	.	16b
.	.	.	16ddJJ
.	.	.	16cc#LL
.	.	.	16ee
.	.	.	16dd
.	.	.	16ff#JJ)
=68	=68	=68	=68
2T	2V7b	2G# 2B 2e	(16ff#LL
.	.	.	16ee
.	.	.	16dd#
.	.	.	16eeJJ
.	.	.	16gg#LL
.	.	.	16ff#
.	.	.	16ee
.	.	.	16ddJJ)
=69	=69	=69	=69
4T	4I	(8AL	(16ddLL
.	.	.	16cc#
.	.	8eJ	16ee
.	.	.	16cc#JJ)
4D	4V7	8EL	(16cc#LL
.	.	.	16b
.	.	8dJ	16dd
.	.	.	16bJJ)
=70	=70	=70	=70
4.T	4.vi	8F#L	(16bLL
.	.	.	16a
.	.	8c#J)	16g#
.	.	.	16aJJ
.	.	8r	16gg#LL
.	.	.	16aa
8T	8IV	(8D	16gg#
.	.	.	16aaJJ)
=71	=71	=71	=71
*	*	*^	*
4T	4Ic	4E	8EL	(16b#LL
.	.	.	.	16cc#
.	.	.	8AJ	16ee
.	.	.	.	16cc#JJ)
4T	4V7	4E	8G#L	(16cc#LL
.	.	.	.	16b
.	.	.	[8dJ	16dd
.	.	.	.	16bJJ)
=72	=72	=72	=72	=72
4.T	4.vi	4F#	8dL]	(16bLL
.	.	.	.	16a
.	.	.	8c#J)	16g#
.	.	.	.	16aJJ
.	.	8r	4r	16gg#LL
.	.	.	.	16aa
8T	8IV	(8D	.	16gg#
.	.	.	.	16aaJJ)
=73	=73	=73	=73	=73
4T	4Ic	4E	8EL	(16b#LL
.	.	.	.	16cc#
.	.	.	8AJ	16ee
.	.	.	.	16cc#JJ)
4T	4V7	4E	8G#L	(16cc#LL
.	.	.	.	16b
.	.	.	8dJ	16dd
.	.	.	.	16bJJ)
*	*	*v	*v	*
=74	=74	=74	=74
4.T	4.I	8A 8c#)	8a'L
.	.	8r	8e'J
.	.	8A	8r
*-	*-	*-	*-
!!!COM: Beethoven
!!!OTL: 13 Variationen uber "Es war einmal ein alter Mann" aus "Das rote Kappchen" von K. Ditters von Dittersdorf
!!!Variation: Variation 2 a
**function	**harm	**kern	**kern
*	*	*clefF4	*clefG2
*	*	*k[f#c#g#]	*k[f#c#g#]
*M2/4	*M2/4	*M2/4	*M2/4
*A:	*A:	*A:	*A:
8T	8V	(16ELL	8r
.	.	16D#JJ)	.
=75	=75	=75	=75
2T	2I	8E'L	2r
.	.	8A'J	.
.	.	(16AALL	.
.	.	16BB	.
.	.	16C#	.
.	.	16DJJ	.
=76	=76	=76	=76
4.T	4.V	8.EL	4r
.	.	16F#Jk	.
.	.	8E'L)	8r
8T	8V7d	8D'J	16g#LL
.	.	.	16eeJJ
=77	=77	=77	=77
8T	8Ib	8C#'L	16aLL
.	.	.	16ee
8T	8I	8AA'J	16a 16cc#
.	.	.	16eeJJ
8T	8V7b	8GG#'L	16bLL 16dd
.	.	.	16ee
8T	8I	8AA'J	16a 16cc#
.	.	.	16eeJJ
=78	=78	=78	=78
4.D	4.V	8EE'	16g#LL
.	.	.	16ee
.	.	8r	16f# 16a
.	.	.	16eeJJ
.	.	8r	8g#L 8b
*-	*-	*-	*-
!!!COM: Beethoven
!!!OTL: 13 Variationen uber "Es war einmal ein alter Mann" aus "Das rote Kappchen" von K. Ditters von Dittersdorf
!!!Variation: Variation 2 a2
**function	**harm	**kern	**kern
*	*	*clefF4	*clefG2
*	*	*k[f#c#g#]	*k[f#c#g#]
*M2/4	*M2/4	*M2/4	*M2/4
*A:	*A:	*A:	*A:
8T	8V	(16ELL	8eJ
.	.	16D#JJ)	.
=79	=79	=79	=79
2T	2I	8E'L	2r
.	.	8A'J	.
.	.	(16AALL	.
.	.	16BB	.
.	.	16C#	.
.	.	16DJJ	.
=80	=80	=80	=80
4.T	4.V	8.EL	4r
.	.	16F#Jk	.
.	.	8E'L)	8r
8T	8V7d	8D'J	16g#LL
.	.	.	16eeJJ
=81	=81	=81	=81
8T	8Ib	8C#'L	16aLL
.	.	.	16ee
8T	8I	8AA'J	16a 16cc#
.	.	.	16eeJJ
8T	8V7b	8GG#'L	16bLL 16dd
.	.	.	16ee
8T	8I	8AA'J	16a 16cc#
.	.	.	16eeJJ
=82	=82	=82	=82
4.D	4.V	8EE'	16g#LL
.	.	.	16ee
.	.	8r	16f# 16a
.	.	.	16eeJJ
.	.	8r	8g# 8b
*-	*-	*-	*-
!!!COM: Beethoven
!!!OTL: 13 Variationen uber "Es war einmal ein alter Mann" aus "Das rote Kappchen" von K. Ditters von Dittersdorf
!!!Variation: Variation 2 b
**function	**harm	**kern	**kern
*	*	*clefF4	*clefG2
*	*	*k[f#c#g#]	*k[f#c#g#]
*M2/4	*M2/4	*M2/4	*M2/4
*A:	*A:	*A:	*A:
8D	8Vc	(16BLL	8r
.	.	16A#JJ)	.
=83	=83	=83	=83
2D	2V7b/V	8B'L	2r
.	.	8D#'J	.
.	.	(16BLL	.
.	.	16A	.
.	.	16F#	.
.	.	16D#JJ)	.
=84	=84	=84	=84
2D	2V	8E'L	8bb'L
.	.	8G#'	8gg#'J
.	.	8B'J	(16eeLL
.	.	.	16b
.	.	8r	16g#
.	.	.	16eJJ)
=85	=85	=85	=85
2D	2V7b/V	8B'L	2r
.	.	8D#'J	.
.	.	(16BLL	.
.	.	16A	.
.	.	16F#	.
.	.	16D#JJ)	.
=86	=86	=86	=86
4.D	4.V	8E'L	8bb'L
.	.	8G#'	8gg#'J
.	.	8B'J	(16eeLL
.	.	.	16gg#
*-	*-	*-	*-
!!!COM: Beethoven
!!!OTL: 13 Variationen uber "Es war einmal ein alter Mann" aus "Das rote Kappchen" von K. Ditters von Dittersdorf
!!!Variation: Variation 2 c
**function	**harm	**kern	**kern
*	*	*clefF4	*clefG2
*	*	*k[f#c#g#]	*k[f#c#g#]
*M2/4	*M2/4	*M2/4	*M2/4
*A:	*A:	*A:	*A:
8D	8Vb	8r	16ee
.	.	.	16bJJ)
=87	=87	=87	=87
4D	4IV/V	4A	8cc#'L
.	.	.	8ee'J
4D	4V/V	8r	(16dd#LL
.	.	.	16ee
.	.	(8B	16ff#
.	.	.	16dd#JJ)
=88	=88	=88	=88
4D	4Ib/V	8G#'L)	8ee'L
.	.	8B'J	8gg#'J
4D	4I/V	(16ELL	8b'
.	.	16F#	.
.	.	16G#	8r
.	.	16EJJ)	.
=89	=89	=89	=89
4D	4IV/V	4A'	8cc#'L
.	.	.	8ee'J
4D	4V7d/V	8r	(16dd#LL
.	.	.	16ee
*	*	*clefG2	*
.	.	(8a	16ff#
.	.	.	16dd#JJ)
=90	=90	=90	=90
4D	4Ib/V	8g#'L)	8ee'L
.	.	8b'J	8gg#'J
4D	4I/V	(16eLL	8bb'
.	.	16f#	.
.	.	16g#	8r
.	.	16eJJ)	.
=91	=91	=91	=91
4D	4IV/V	4a'	8cc#'L
.	.	.	8ee'J
4D	4V/V	8r	(16dd#LL
.	.	.	16ee
*	*	*clefF4	*
.	.	(8B	16ff#
.	.	.	16dd#JJ)
=92	=92	=92	=92
4D	4Ib/V	8G#'L)	8ee'L
.	.	8B'J	8gg#'J
4D	4I/V	(16ELL	8b'
.	.	16F#	.
.	.	16G#	8r
.	.	16EJJ)	.
=93	=93	=93	=93
4D	4IV/V	4A'	8cc#'L
.	.	.	8ee'J
4D	4V7d/V	8r	(16dd#LL
.	.	.	16ee
*	*	*clefG2	*
.	.	(8a	16ff#
.	.	.	16dd#JJ)
=94	=94	=94	=94
4D	4Ib/V	4g#')	8ee'L
.	.	.	8gg#'J
4D	4viio/V	8r	(16ff#LL
.	.	.	16gg#
.	.	(8d#	16aa
.	.	.	16ff#JJ)
=95	=95	=95	=95
4D	4I/V	8e')	16gg#'LL
.	.	.	16b
.	.	8g#'L	16bb
.	.	.	16bJJ
4D	4V7c/V	8f#'	16dd#LL
.	.	.	16b
.	.	8a'J	16ff#
.	.	.	16bJJ
=96	=96	=96	=96
2D	2r	2r;	2r;
=97	=97	=97	=97
4D	4I/V	16g#LL	4r
.	.	16b	.
.	.	16e	.
.	.	16bJJ	.
*-	*-	*-	*-
!!!COM: Beethoven
!!!OTL: 13 Variationen uber "Es war einmal ein alter Mann" aus "Das rote Kappchen" von K. Ditters von Dittersdorf
!!!Variation: Variation 2 d
**function	**harm	**kern	**kern
*	*	*clefG2	*clefG2
*	*	*k[f#c#g#]	*k[f#c#g#]
*M2/4	*M2/4	*M2/4	*M2/4
*A:	*A:	*A:	*A:
4D	4V	16g#LL	8ee
.	.	16b	.
.	.	16e	8r
.	.	16bJJ	.
=98	=98	=98	=98
2D	2V7c/ii	16f#LL	8r
.	.	16a#	.
.	.	16c#	(8ee
.	.	16a#JJ	.
.	.	.	(q8ddd#
.	.	16f#LL	8eeeL)
.	.	16a#	.
.	.	16c#	8eee'J
.	.	16a#JJ	.
=99	=99	=99	=99
4D	4ii	16f#LL	8r
.	.	16b	.
.	.	16B	(8ddd
.	.	16bJJ	.
4D	4V7b	16eLL	8ddL)
.	.	16g#	.
.	.	16B	8dd'J
.	.	16g#JJ	.
=100	=100	=100	=100
2D	2I	16eLL	8r
.	.	16a	.
.	.	16A	(8ccc#
.	.	16aJJ	.
.	.	16eLL	8cc#L)
.	.	16a	.
.	.	16A	8cc#'J
.	.	16aJJ	.
=101	=101	=101	=101
2D	2V	4e	16r
.	.	.	(16bbLL
.	.	.	16gg#
.	.	.	16ff#JJ
.	.	4r	16eeLL
.	.	.	16dd
.	.	.	16cc#
.	.	.	16bJJ)
*-	*-	*-	*-
!!!COM: Beethoven
!!!OTL: 13 Variationen uber "Es war einmal ein alter Mann" aus "Das rote Kappchen" von K. Ditters von Dittersdorf
!!!Variation: Variation 2 e
**function	**harm	**kern	**kern
*	*	*clefF4	*clefG2
*	*	*k[f#c#g#]	*k[f#c#g#]
*M2/4	*M2/4	*M2/4	*M2/4
*A:	*A:	*A:	*A:
=102	=102	=102	=102
2T	2I	8E'L	8a
.	.	8A'J	8r
.	.	(16AALL	4r
.	.	16BB	.
.	.	16C#	.
.	.	16DJJ	.
=103	=103	=103	=103
2T	2V	8.EL	2r
.	.	16F#Jk	.
.	.	8E'L)	.
.	.	8D'J	.
=104	=104	=104	=104
2T	2I	8C#'L	8e'L
.	.	8E'	8a'J
.	.	8AA'J	(16ALL
.	.	.	16B
.	.	8r	16c#
.	.	.	16dJJ
=105	=105	=105	=105
2T	2V	8GG#'L	8.eL
.	.	8BB'	.
.	.	.	16f#Jk
.	.	8EE'J	8e'L)
.	.	8r	8d'J
=106	=106	=106	=106
4T	4I	8AA'L	(4c#
.	.	8C#'	.
8P	8iib	8D'	16BLL
.	.	.	16d
8D	8V	8E'J	16B
.	.	.	16G#JJ
=107	=107	=107	=107
8T	8I	8AA'L	4A)
8T	8IVb	(16AL	.
.	.	16F#JJ	.
8T	8I	8E'L)	8r
8T	8IV	(16F#L	(16aLL
.	.	16DJJ	16f#JJ
=108	=108	=108	=108
8T	8Ib	8C#'L)	8e'L)
8T	8IV	8D'J	(16f#L
.	.	.	16dJJ
8T	8Ic	8E'L	8c#'L)
8T	8V7	8EE'J	(16dL
.	.	.	16BJJ
=109	=109	=109	=109
8T	8I	4AA	8A'L)
8T	8IVb	.	(16aL
.	.	.	16f#JJ
8T	8I	8r	8e'L)
8T	8IVb	(16ALL	(16f#L
.	.	16F#JJ	16dJJ
=110	=110	=110	=110
4T	4Ic	8E'L)	8c#'L)
.	.	(16F#L	(16dL
.	.	16DJJ	16BJJ
4T	4V	8E'L)	8A'L)
.	.	8EE'J	(16BL
.	.	.	16G#JJ
=111	=111	=111	=111
4.T	4.I	8AAL	4A')
.	.	8EE	.
.	.	8AAAJ	8r
*-	*-	*-	*-
!!!COM: Beethoven
!!!OTL: 13 Variationen uber "Es war einmal ein alter Mann" aus "Das rote Kappchen" von K. Ditters von Dittersdorf
!!!Variation: Variation 3 a
**function	**harm	**kern	**kern
*	*	*clefF4	*clefG2
*	*	*k[f#c#g#]	*k[f#c#g#]
*M2/4	*M2/4	*M2/4	*M2/4
*A:	*A:	*A:	*A:
8T	8V	8r	8e'
=112	=112	=112	=112
*	*	*^	*
2T	2I	2A	(8c#L	(24aLL
.	.	.	.	24b
.	.	.	.	24cc#J
.	.	.	8eJ	24ddL
.	.	.	.	24ee
.	.	.	.	24ff#JJ
.	.	.	8dL	24gg#LL
.	.	.	.	24aa
.	.	.	.	24bbJ)
.	.	.	8c#J)	16ccc#'L
.	.	.	.	16ddd'JJ
=113	=113	=113	=113	=113
2T	2V7b	2G#	(8BL	(8ddd#
.	.	.	8dJ	4eee
.	.	.	8c#L	.
.	.	.	8BJ	8ddd)
*	*	*v	*v	*
=114	=114	=114	=114
4T	4I	8AL)	(16dddLL
.	.	.	16ccc#
.	.	8e'J	16bb
.	.	.	16aaJJ)
8T	8viiob	8G#'L	8bb'L 8ddd'
8T	8I	8A'J	8aa'J 8ccc#'
=115	=115	=115	=115
4.D	4.V	8r	4gg#' 4bb'
.	.	(8EL	.
.	.	8eJ)	8r
*-	*-	*-	*-
!!!COM: Beethoven
!!!OTL: 13 Variationen uber "Es war einmal ein alter Mann" aus "Das rote Kappchen" von K. Ditters von Dittersdorf
!!!Variation: Variation 3 a2
**function	**harm	**kern	**kern
*	*	*clefF4	*clefG2
*	*	*k[f#c#g#]	*k[f#c#g#]
*M2/4	*M2/4	*M2/4	*M2/4
*A:	*A:	*A:	*A:
8T	8V	8r	8e'
=116	=116	=116	=116
*	*	*^	*
2T	2I	2A	(8c#L	(24aLL
.	.	.	.	24b
.	.	.	.	24cc#J
.	.	.	8eJ	24ddL
.	.	.	.	24ee
.	.	.	.	24ff#JJ
.	.	.	8dL	24gg#LL
.	.	.	.	24aa
.	.	.	.	24bbJ)
.	.	.	8c#J)	16ccc#'L
.	.	.	.	16ddd'JJ
=117	=117	=117	=117	=117
2T	2V7b	2G#	(8BL	(8ddd#
.	.	.	8dJ	4eee
.	.	.	8c#L	.
.	.	.	8BJ	8ddd)
*	*	*v	*v	*
=118	=118	=118	=118
4T	4I	8AL)	(16dddLL
.	.	.	16ccc#
.	.	8e'J	16bb
.	.	.	16aaJJ)
8T	8viiob	8G#'L	8bb'L 8ddd'
8T	8I	8A'J	8aa'J 8ccc#'
=119	=119	=119	=119
4.D	4.V	8r	4gg#' 4bb'
.	.	(8EL	.
.	.	8eJ)	8r
*-	*-	*-	*-
!!!COM: Beethoven
!!!OTL: 13 Variationen uber "Es war einmal ein alter Mann" aus "Das rote Kappchen" von K. Ditters von Dittersdorf
!!!Variation: Variation 3 b
**function	**harm	**kern	**kern
*	*	*clefF4	*clefG2
*	*	*k[f#c#g#]	*k[f#c#g#]
*M2/4	*M2/4	*M2/4	*M2/4
*A:	*A:	*A:	*A:
8D	8V	8r	8b'
=120	=120	=120	=120
4D	4Vb/V	16D#LL	(4b
.	.	16E	.
.	.	16D#	.
.	.	16C#JJ	.
4D	4V7/V	16D#LL	4B 4f# 4a
.	.	16BB	.
.	.	16C#	.
.	.	16D#JJ	.
=121	=121	=121	=121
2D	2V	16ELL	4B) 4e 4g#
.	.	16F#	.
.	.	16G#	.
.	.	16AJJ	.
.	.	16BLL	8r
.	.	16G#	.
.	.	16F#	8b'
.	.	16EJJ	.
=122	=122	=122	=122
4D	4Vb/V	16D#LL	4b
.	.	16E	.
.	.	16D#	.
.	.	16C#JJ	.
4D	4V7/V	16D#LL	4f# 4a 4b
.	.	16BB	.
.	.	16C#	.
.	.	16D#JJ	.
=123	=123	=123	=123
2D	2V	16ELL	8e' 8g#' 8b'
.	.	16F#	.
.	.	16G#	8r
.	.	16AJJ	.
.	.	8BL	8r
*-	*-	*-	*-
!!!COM: Beethoven
!!!OTL: 13 Variationen uber "Es war einmal ein alter Mann" aus "Das rote Kappchen" von K. Ditters von Dittersdorf
!!!Variation: Variation 3 c
**function	**harm	**kern	**kern
*	*	*clefF4	*clefG2
*	*	*k[f#c#g#]	*k[f#c#g#]
*M2/4	*M2/4	*M2/4	*M2/4
*A:	*A:	*A:	*A:
8D	8Vb	(8G#J	(16eLL
.	.	.	16bJJ
=124	=124	=124	=124
4D	4ii7b/V	4A	16eLL
.	.	.	16cc#
.	.	.	16f#
.	.	.	16cc#JJ)
4D	4V7/V	4B	(16f#LL
.	.	.	16dd#
.	.	.	16a
.	.	.	16dd#JJ)
=125	=125	=125	=125
4.D	4.I/V	4E')	(16aLL
.	.	.	16ee
.	.	.	16g#
.	.	.	16eeJJ
.	.	8r	16bLL
.	.	.	16eeJ)
8D	8Ib/V	8G#'	24eL
.	.	.	24cc#
.	.	.	24bJJ
=126	=126	=126	=126
4D	4ii7b/V	8A'	24eLL
.	.	.	24dd
.	.	.	24cc#J
.	.	8r	24f#L
.	.	.	24dd
.	.	.	24cc#JJ
4D	4V7/V	8B'	24f#LL
.	.	.	24ee
.	.	.	24dd#J
.	.	8r	24aL
.	.	.	24ee
.	.	.	24dd#JJ
=127	=127	=127	=127
4.D	4.I/V	4E'	24aLL
.	.	.	24ff#
.	.	.	24eeJ
.	.	.	24g#L
.	.	.	24ff#
.	.	.	24eeJJ
.	.	8r	24bLL
.	.	.	24ff#
.	.	.	24ee
8D	8Ib/V	(8GG#	(16e
.	.	.	16bJJ
=128	=128	=128	=128
4D	4ii7b/V	4AA	16eLL
.	.	.	16cc#
.	.	.	16f#
.	.	.	16cc#JJ)
4D	4V7/V	4BB	(16f#LL
.	.	.	16dd#
.	.	.	16a
.	.	.	16dd#JJ)
=129	=129	=129	=129
4.D	4.I/V	4EE')	(16aLL
.	.	.	16ee
.	.	.	16g#
.	.	.	16eeJJ
.	.	8r	16bLL
.	.	.	16eeJ)
8D	8Ib/V	8G#	24eL
.	.	.	24cc#
.	.	.	24bJJ
=130	=130	=130	=130
4D	4ii7b/V	8A	24eLL
.	.	.	24dd
.	.	.	24cc#J
.	.	8r	24f#L
.	.	.	24dd
.	.	.	24cc#JJ
4D	4V7/V	8B	24f#LL
.	.	.	24ee
.	.	.	24dd#J
.	.	8r	24aL
.	.	.	24ee
.	.	.	24dd#JJ
=131	=131	=131	=131
4D	4I/V	8E	24aLL
.	.	.	24ff#
.	.	.	24eeJ
.	.	8r	24g#L
.	.	.	24ff#
.	.	.	24eeJJ
4D	4Vb/V	8D#	24bLL
.	.	.	24gg#
.	.	.	24ff#J
.	.	8r	24bL
.	.	.	24gg#
.	.	.	24ff#JJ
=132	=132	=132	=132
4D	4I/V	8E	24bLL
.	.	.	24aa
.	.	.	24gg#J
.	.	8r	24bL
.	.	.	24aa
.	.	.	24gg#JJ
4D	4V7/V	8BB	24dd#LL
.	.	.	24bb
.	.	.	24aaJ
.	.	8r	24dd#L
.	.	.	24bb
.	.	.	24aaJJ
=133	=133	=133	=133
2D	2r	2r;	2r;
=134	=134	=134	=134
4D	4I/V	4r	([4ee
*-	*-	*-	*-
!!!COM: Beethoven
!!!OTL: 13 Variationen uber "Es war einmal ein alter Mann" aus "Das rote Kappchen" von K. Ditters von Dittersdorf
!!!Variation: Variation 3 d
**function	**harm	**kern	**kern
*	*	*clefG2	*clefG2
*	*	*k[f#c#g#]	*k[f#c#g#]
*M2/4	*M2/4	*M2/4	*M2/4
*A:	*A:	*A:	*A:
4D	4V	4r	16eeLL]
.	.	.	16dd#
.	.	.	16ee
.	.	.	16dd#JJ
=135	=135	=135	=135
4D	4V	4r	16eeLL
.	.	.	16dd#
.	.	.	16ee
.	.	.	16ee#JJ
4D	4vib	16r	[4ff#
.	.	(16g#LL	.
.	.	16a	.
.	.	16a#JJ	.
=136	=136	=136	=136
4D	4ii	[4b)	16ff#LL])
.	.	.	(16cc#
.	.	.	16dd
.	.	.	16dd#JJ
4D	4V	16bLL]	[4ee
.	.	(16f#	.
.	.	16g	.
.	.	16g#JJ	.
=137	=137	=137	=137
4D	4I	4a	16eeLL])
.	.	.	(16b#
.	.	.	16cc#
.	.	.	16eeJJ
8D	8viio	8g#'L)	16ddLL
.	.	.	16b
8D	8I	8a'J	16cc#
.	.	.	16aJJ)
=138	=138	=138	=138
.	.	.	q8cc#
4.D	4.V	8e	(16bLL
.	.	.	16a
.	.	8r	16b
.	.	.	16cc#JJ)
.	.	8r	8bL
*-	*-	*-	*-
!!!COM: Beethoven
!!!OTL: 13 Variationen uber "Es war einmal ein alter Mann" aus "Das rote Kappchen" von K. Ditters von Dittersdorf
!!!Variation: Variation 3 e
**function	**harm	**kern	**kern
*	*	*clefF4	*clefG2
*	*	*k[f#c#g#]	*k[f#c#g#]
*M2/4	*M2/4	*M2/4	*M2/4
*A:	*A:	*A:	*A:
8T	8V	8r	8e'J
=139	=139	=139	=139
*	*	*^	*
2T	2I	2A	(8c#L	(24aLL
.	.	.	.	24b
.	.	.	.	24cc#J
.	.	.	8eJ	24ddL
.	.	.	.	24ee
.	.	.	.	24ff#JJ
.	.	.	8dL	24gg#LL
.	.	.	.	24aa
.	.	.	.	24bbJ)
.	.	.	8c#J)	16ccc#'L
.	.	.	.	16ddd'JJ
=140	=140	=140	=140	=140
2T	2V7b	2G#	(8BL	(8ddd#
.	.	.	8dJ	4eee
.	.	.	8c#L	.
.	.	.	8BJ)	8ddd)
=141	=141	=141	=141	=141
2T	2I	2A	(8c#L	8ccc#L
.	.	.	8eJ	(24cc#L
.	.	.	.	24dd
.	.	.	.	24eeJJ
.	.	.	8dL	24ff#LL
.	.	.	.	24gg#
.	.	.	.	24aaJ
.	.	.	8c#J)	24bbL
.	.	.	.	24ccc#
.	.	.	.	24dddJJ)
=142	=142	=142	=142	=142
2T	2V7b	2G#	(8BL	(8ddd#
.	.	.	8dJ	4eee
.	.	.	8c#L	.
.	.	.	8BJ)	8ddd)
=143	=143	=143	=143	=143
4T	4I	4A	(8AL	4ccc#
.	.	.	8eJ)	.
4D	4V7	4E	(8EL	(16bbLL
.	.	.	.	16ddd
.	.	.	8dJ)	16bb
.	.	.	.	16gg#JJ
*	*	*v	*v	*
=144	=144	=144	=144
8T	8I	8AL 8c#L	8aa')
*	*	*	*^
8T	8IVc	16dL	(8ff#J	4aa
.	.	16AJJ	.	.
8T	8I	16c#LL	8eeL)	.
.	.	16A	.	.
8T	8IVc	16d	8ff#J	8aa
.	.	16AJJ	.	.
=145	=145	=145	=145	=145
4T	4Ic	8e	8cc#	8aa'L
*	*	*	*v	*v
.	.	8r	24eeL
.	.	.	24cc#
.	.	.	24aJJ
4T	4V	8E	8g#L
.	.	8r	24ddL
.	.	.	24b
.	.	.	24g#JJ
=146	=146	=146	=146
8T	8I	16C#LL	8aL
.	.	16AA	.
*	*	*	*^
8T	8IVc	16D	4A	(8f#J
.	.	16AAJJ	.	.
8T	8I	16C#LL	.	8eL)
.	.	16AA	.	.
8T	8IVc	16D	8f#	8aJ
.	.	16AAJJ	.	.
=147	=147	=147	=147	=147
4T	4Ic	8E	8c#'	8a'L
*	*	*	*v	*v
.	.	8r	24eeL
.	.	.	24cc#
.	.	.	24aJJ
4T	4V	8EE	8bL
.	.	8r	24ddL
.	.	.	24ee
.	.	.	24gg#JJ
=148	=148	=148	=148
4.T	4.I	4AA	4cc# 4aa
.	.	8r	8r
*-	*-	*-	*-
!!!COM: Beethoven
!!!OTL: 13 Variationen uber "Es war einmal ein alter Mann" aus "Das rote Kappchen" von K. Ditters von Dittersdorf
!!!Variation: Variation 4 a
**function	**harm	**kern	**kern
*	*	*clefF4	*clefG2
*	*	*k[f#c#g#]	*k[f#c#g#]
*M2/4	*M2/4	*M2/4	*M2/4
*A:	*A:	*A:	*A:
8T	8V	8r	8e'
=149	=149	=149	=149
2T	2I	8A'L	(16g#LL
.	.	.	16aJ)
.	.	8e'J	8b'J
.	.	8c#'L	(16b#LL
.	.	.	16cc#J)
.	.	8A'J	8dd'J
=150	=150	=150	=150
4.T	4.Vb	8G#'L	(16dd#LL
.	.	.	16eeJ)
.	.	8B'J	8ff#'J
.	.	8G#'L	(16dd#LL
.	.	.	16eeJ)
8T	8V7	8E'J	8dd'J
=151	=151	=151	=151
8T	8I	8A'L	(16b#LL
.	.	.	16cc#JJ)
8T	8Ib	8C#'J	8ee'L
8T	8V7c	8BB'L	8dd' 8ee' 8gg#'
8T	8I	8AA'J	8cc#'J 8ee' 8aa'
=152	=152	=152	=152
4.D	4.V	8r	(8eeL 8aa 8ccc#
.	.	8EE'L	8eeJ) 8gg# 8bb
.	.	8E'J	8r
*-	*-	*-	*-
!!!COM: Beethoven
!!!OTL: 13 Variationen uber "Es war einmal ein alter Mann" aus "Das rote Kappchen" von K. Ditters von Dittersdorf
!!!Variation: Variation 4 a2
**function	**harm	**kern	**kern
*	*	*clefF4	*clefG2
*	*	*k[f#c#g#]	*k[f#c#g#]
*M2/4	*M2/4	*M2/4	*M2/4
*A:	*A:	*A:	*A:
8T	8V	8r	8e'
=153	=153	=153	=153
2T	2I	8A'L	(16g#LL
.	.	.	16aJ)
.	.	8e'J	8b'J
.	.	8c#'L	(16b#LL
.	.	.	16cc#J)
.	.	8A'J	8dd'J
=154	=154	=154	=154
4.T	4.Vb	8G#'L	(16dd#LL
.	.	.	16eeJ)
.	.	8B'J	8ff#'J
.	.	8G#'L	(16dd#LL
.	.	.	16eeJ)
8T	8V7	8E'J	8dd'J
=155	=155	=155	=155
8T	8I	8A'L	(16b#LL
.	.	.	16cc#JJ)
8T	8Ib	8C#'J	8ee'L
8T	8V7c	8BB'L	8dd' 8ee' 8gg#'
8T	8I	8AA'J	8cc#'J 8ee' 8aa'
=156	=156	=156	=156
4.D	4.V	8r	(8eeL 8aa 8ccc#
.	.	8EE'L	8eeJ) 8gg# 8bb
.	.	8E'J	8r
*-	*-	*-	*-
!!!COM: Beethoven
!!!OTL: 13 Variationen uber "Es war einmal ein alter Mann" aus "Das rote Kappchen" von K. Ditters von Dittersdorf
!!!Variation: Variation 4 b
**function	**harm	**kern	**kern
*	*	*clefF4	*clefG2
*	*	*k[f#c#g#]	*k[f#c#g#]
*M2/4	*M2/4	*M2/4	*M2/4
*A:	*A:	*A:	*A:
8D	8V	8r	8b'
=157	=157	=157	=157
2D	2Vb/V	8D#L	(16a#LL
.	.	.	16bJJ)
.	.	8BJ	8cc#'
.	.	8F#L	(16a#LL
.	.	.	16bJJ)
.	.	8D#J	8aa'
=158	=158	=158	=158
2D	2V	8EL	(16a#LL
.	.	.	16bJJ)
.	.	8BJ	8gg#'
.	.	8G#L	(16a#LL
.	.	.	16bJJ)
.	.	8EJ	8bb'
=159	=159	=159	=159
2D	2Vb/V	8D#L	(16a#LL
.	.	.	16bJJ)
.	.	8BJ	8cc#'
.	.	8F#L	(16a#LL
.	.	.	16bJJ)
.	.	8BJ	8aa'
=160	=160	=160	=160
2D	2V	8EL	(16a#LL
.	.	.	16bJJ)
.	.	8BJ	8gg#'
.	.	8G#L	(16a#LL
.	.	.	16bJJ)
.	.	8BJ	8bb'
*-	*-	*-	*-
!!!COM: Beethoven
!!!OTL: 13 Variationen uber "Es war einmal ein alter Mann" aus "Das rote Kappchen" von K. Ditters von Dittersdorf
!!!Variation: Variation 4 c
**function	**harm	**kern	**kern
*	*	*clefF4	*clefG2
*	*	*k[f#c#g#]	*k[f#c#g#]
*M2/4	*M2/4	*M2/4	*M2/4
*A:	*A:	*A:	*A:
=161	=161	=161	=161
4D	4IV/V	16ALL	(4cc#
.	.	16e	.
.	.	16c#	.
.	.	16eJJ	.
8D	8V/V	16BLL	4dd#
.	.	16f#	.
8D	8V7d/V	16A	.
.	.	16f#JJ	.
=162	=162	=162	=162
4.D	4.Ib/V	16G#LL	4ee')
.	.	16B	.
.	.	16F#	.
.	.	16BJJ	.
.	.	16G#LL	8r
.	.	16B	.
8D	8I/V	16E	(8b
.	.	16BJJ	.
=163	=163	=163	=163
4D	4IV/V	16ALL	4cc#
.	.	16e	.
.	.	16c#	.
.	.	16eJJ	.
8D	8V/V	16BLL	8ddL
.	.	16f#	.
8D	8V7d/V	16A	8dd#J
.	.	16f#JJ	.
=164	=164	=164	=164
4D	4Ib/V	16G#LL	8.eeL
.	.	16B	.
.	.	16F#	.
.	.	16BJJ	16ff#Jk)
4D	4I/V	16ELL	8gg#'L
.	.	16B	.
.	.	16G#	8b'J
.	.	16BJJ	.
=165	=165	=165	=165
4D	4IV/V	16ALL	(4cc#
.	.	16e	.
.	.	16c#	.
.	.	16eJJ	.
8D	8V/V	16BLL	4dd#
.	.	16f#	.
8D	8V7d/V	16A	.
.	.	16f#JJ	.
=166	=166	=166	=166
4.D	4.Ib/V	16G#LL	4ee')
.	.	16B	.
.	.	16F#	.
.	.	16BJJ	.
.	.	16G#LL	8r
.	.	16B	.
8D	8I/V	16E	(8b
.	.	16BJJ	.
=167	=167	=167	=167
4D	4IV/V	16ALL	4cc#
.	.	16e	.
.	.	16c#	.
.	.	16eJJ	.
8D	8V/V	16BLL	8ddL
.	.	16f#	.
8D	8V7d/V	16A	8dd#J
.	.	16f#JJ	.
=168	=168	=168	=168
8D	8Ib/V	16G#LL	4ee
.	.	16B	.
8D	8I/V	16E	.
.	.	16BJJ	.
4D	4V7b/V	16D#LL	16gg#LL
.	.	16B	16ff#
.	.	16A	16ee
.	.	16BJJ	16ff#JJ
=169	=169	=169	=169
4D	4I/V	16ELL	16aaLL
.	.	16B	16gg#
.	.	16G#	16bb
.	.	16BJJ	16eeJJ)
4D	4V/V	16BBLL	(16eeLL
.	.	16B	16dd#
.	.	16F#	16ff#
.	.	16BJJ	16bJJ)
=170	=170	=170	=170
2D	2r	2r;	2r;
=171	=171	=171	=171
2D	2I/V	8r	[2ee
.	.	(8E	.
.	.	8G#L	.
.	.	8BJ	.
*-	*-	*-	*-
!!!COM: Beethoven
!!!OTL: 13 Variationen uber "Es war einmal ein alter Mann" aus "Das rote Kappchen" von K. Ditters von Dittersdorf
!!!Variation: Variation 4 d
**function	**harm	**kern	**kern
*	*	*clefF4	*clefG2
*	*	*k[f#c#g#]	*k[f#c#g#]
*M2/4	*M2/4	*M2/4	*M2/4
*A:	*A:	*A:	*A:
=172	=172	=172	=172
4	4ii/ii	8eL	4.ee]
.	.	8c#J	.
4	4V7b/ii	8BL	.
.	.	8A#J)	(8ff#
=173	=173	=173	=173
4	4ii	(8dL	4.dd)
.	.	8BJ	.
4	4V7b	8AL	.
.	.	8G#J	(8ee
=174	=174	=174	=174
4	4I	8AL	8cc#L
.	.	8c#J	8aJ
8	8viiob	8BL	8g#L 8dd
8	8I	8AJ	8aJ 8cc#
=175	=175	=175	=175
4.D	4.V	4.E)	8g#L 8b
.	.	.	8f#J 8a
.	.	.	8g#L) 8b
*-	*-	*-	*-
!!!COM: Beethoven
!!!OTL: 13 Variationen uber "Es war einmal ein alter Mann" aus "Das rote Kappchen" von K. Ditters von Dittersdorf
!!!Variation: Variation 4 e
**function	**harm	**kern	**kern
*	*	*clefF4	*clefG2
*	*	*k[f#c#g#]	*k[f#c#g#]
*M2/4	*M2/4	*M2/4	*M2/4
*A:	*A:	*A:	*A:
8D	8V	8r	8e'J
=176	=176	=176	=176
2T	2I	8A'L	(16g#LL
.	.	.	16aJJ)
.	.	8e'J	8b'
.	.	8c#'L	(16b#LL
.	.	.	16cc#JJ)
.	.	8A'J	8dd'
=177	=177	=177	=177
4.T	4.Vb	8G#'L	(16dd#LL
.	.	.	16eeJJ)
.	.	8B'J	8ff#'
.	.	8G#'L	(16dd#LL
.	.	.	16eeJJ)
8T	8V7	8E'J	8dd'
=178	=178	=178	=178
2T	2I	8A'L	(16b#LL
.	.	.	16cc#JJ)
.	.	8E'J	8b'
.	.	8C#'L	(16b#LL
.	.	.	16cc#JJ)
.	.	8AA'J	8dd'
=179	=179	=179	=179
4.T	4.Vb	8GG#'L	(16dd#LL
.	.	.	16eeJJ)
.	.	8BB'J	8ff#'
.	.	8GG#'L	(16dd#LL
.	.	.	16eeJJ)
8T	8V7	8EE'J	8dd'
=180	=180	=180	=180
4T	4I	8AA'L	(16b#LL
.	.	.	16cc#JJ)
.	.	8C#'J	8ee'
8P	8iib	8D'L	(16cc#LL
.	.	.	16bJJ)
8D	8V	8E'J	8ee'
=181	=181	=181	=181
4T	4I	8AA'	(16bLL
.	.	.	16aJJ)
.	.	8r	8aa'
4T	4IV	(16G#LL	(16gg#LL
.	.	16AJ)	16aaJJ)
.	.	8D'J	8ff#'
=182	=182	=182	=182
4T	4Ib	(16G#LL	(16gg#LL
.	.	16AJ)	16aaJJ)
.	.	8C#'J	8ee'
8T	8Ic	8EL	(16cc#LL
.	.	.	16bJJ)
8T	8V	8EEJ	8ee'
=183	=183	=183	=183
4T	4I	8AA	(16bLL
.	.	.	16aJJ)
.	.	8r	8ee'
4T	4IV	(16G#LL	(16gg#LL
.	.	16AJ)	16aaJJ)
.	.	8D'J	8ff#'
=184	=184	=184	=184
4T	4Ib	(16G#LL	(16gg#LL
.	.	16AJ)	16aaJJ)
.	.	8C#'J	8ee'
8T	8Ic	8EL	(16cc#LL
.	.	.	16bJJ)
8T	8V	8EEJ	8ee'
=185	=185	=185	=185
4.T	4.I	4AA	4a
.	.	8r	8r
*-	*-	*-	*-
!!!COM: Beethoven
!!!OTL: 13 Variationen uber "Es war einmal ein alter Mann" aus "Das rote Kappchen" von K. Ditters von Dittersdorf
!!!Variation: Variation 5 a
**function	**harm	**kern	**kern
*	*	*clefF4	*clefG2
*	*	*k[f#c#g#]	*k[f#c#g#]
*M2/4	*M2/4	*M2/4	*M2/4
*A:	*A:	*A:	*A:
8T	8V	8r	(8e
=186	=186	=186	=186
2T	2I	8r	8a'L)
.	.	(24f#LL	8b'
.	.	24e	.
.	.	24dJJ	.
.	.	8c#'L)	8cc#'
.	.	(24c#L	8dd'J
.	.	24B	.
.	.	24AJJ	.
=187	=187	=187	=187
*	*	*	*^
4.T	4.Vb	8G#'L)	2e 2b	4.ee
.	.	(24AL	.	.
.	.	24G#	.	.
.	.	24F#JJ	.	.
.	.	8G#'L)	.	.
8T	8V7	(24EL	.	(8dd
.	.	24F#	.	.
.	.	24G#JJ	.	.
*	*	*	*v	*v
=188	=188	=188	=188
4T	4I	8A')	8.cc#'L)
.	.	8r	.
.	.	.	16a'Jk
8.T	8.V7b	8.G#'L 8.e'	8.b'L 8.dd'
16T	16I	16A'Jk 16e'	16a'Jk 16cc#'
=189	=189	=189	=189
4D	4Cc	4.E 4.e	(8.aL 8.cc#
.	.	.	16f#Jk 16ee
8D	8V	.	8g#) 8b
*-	*-	*-	*-
!!!COM: Beethoven
!!!OTL: 13 Variationen uber "Es war einmal ein alter Mann" aus "Das rote Kappchen" von K. Ditters von Dittersdorf
!!!Variation: Variation 5 a2
**function	**harm	**kern	**kern
*	*	*clefF4	*clefG2
*	*	*k[f#c#g#]	*k[f#c#g#]
*M2/4	*M2/4	*M2/4	*M2/4
*A:	*A:	*A:	*A:
8T	8V	8r	8ee
=190	=190	=190	=190
2T	2I	8r	8a'L 8aa'L
.	.	(24F#LL	8b' 8bb'
.	.	24E	.
.	.	24DJJ	.
.	.	8C#'L)	8cc#' 8ccc#'
.	.	(24C#L	8dd'J 8ddd'J
.	.	24BB	.
.	.	24AAJJ	.
=191	=191	=191	=191
*	*	*	*^
4.T	4.Vb	8GG#'L)	2ee	4.eee
.	.	(24AAL	.	.
.	.	24GG#	.	.
.	.	24FF#JJ	.	.
.	.	8GG#'L)	.	.
8T	8V7	(24EEL	.	(8ddd
.	.	24FF#	.	.
.	.	24GG#JJ	.	.
*	*	*	*v	*v
=192	=192	=192	=192
4T	4I	8AA')	8.ccc#'L)
.	.	8r	.
.	.	.	16aa'Jk
8.T	8.V7b	8.G#'L 8.e'	8.bb'L 8.ddd'
16T	16I	16A'Jk 16e'	16aa'Jk 16ccc#'
=193	=193	=193	=193
4D	4Cc	4.E 4.e	(8.aaL 8.ccc#
.	.	.	16ff#Jk 16eee
8D	8V	.	8gg#L) 8bb
*-	*-	*-	*-
!!!COM: Beethoven
!!!OTL: 13 Variationen uber "Es war einmal ein alter Mann" aus "Das rote Kappchen" von K. Ditters von Dittersdorf
!!!Variation: Variation 5 b
**function	**harm	**kern	**kern
*	*	*clefF4	*clefG2
*	*	*k[f#c#g#]	*k[f#c#g#]
*M2/4	*M2/4	*M2/4	*M2/4
*A:	*A:	*A:	*A:
8D	8V	8r	8bJ
=194	=194	=194	=194
4D	4Vb/V	8D#'L	4b
.	.	(24EL	.
.	.	24D#	.
.	.	24C#JJ	.
4D	4V7/V	8D#'L)	4B 4f# 4a
.	.	(24BBL	.
.	.	24C#	.
.	.	24D#JJ	.
=195	=195	=195	=195
2D	2V	8E'L)	4.B 4.e 4.g#
.	.	(24EL	.
.	.	24F#	.
.	.	24G#JJ	.
.	.	8E')	.
.	.	8r	8b
=196	=196	=196	=196
4D	4Vb/V	8D#'L	4B 4b
.	.	(24EL	.
.	.	24D#	.
.	.	24C#JJ	.
4D	4V7/V	8D#'L)	4f# 4a 4b
.	.	(24BBL	.
.	.	24C#	.
.	.	24D#JJ	.
=197	=197	=197	=197
4.D	4.V	8E'L)	4.e 4.g# 4.b
.	.	(24EL	.
.	.	24F#	.
.	.	24G#JJ	.
.	.	8E')	.
*-	*-	*-	*-
!!!COM: Beethoven
!!!OTL: 13 Variationen uber "Es war einmal ein alter Mann" aus "Das rote Kappchen" von K. Ditters von Dittersdorf
!!!Variation: Variation 5 c
**function	**harm	**kern	**kern
*	*	*clefG2	*clefG2
*	*	*k[f#c#g#]	*k[f#c#g#]
*M2/4	*M2/4	*M2/4	*M2/4
*A:	*A:	*A:	*A:
8D	8V	8r	8b
=198	=198	=198	=198
4D	4IV/V	4a	8cc#'L
.	.	.	(24eeL
.	.	.	24dd#
.	.	.	24cc#JJ
4D	4V7d/V	4a 4b	8dd#'L)
.	.	.	(24ff#L
.	.	.	24ee
.	.	.	24dd#JJ
=199	=199	=199	=199
4.D	4.Ib/V	4.g# 4.b	8ee'L)
.	.	.	(24eeL
.	.	.	24ff#
.	.	.	24gg#JJ
.	.	.	8ee'L)
8D	8V	8B	8bb'J
=200	=200	=200	=200
4D	4vi7/V	8c#'L	4b 4bb
.	.	(24eL	.
.	.	24d#	.
.	.	24c#JJ	.
4D	4V7b/V	8d#'L)	4b 4aa
.	.	(24f#L	.
.	.	24e	.
.	.	24d#JJ	.
=201	=201	=201	=201
4.D	4.I/V	8e'L)	4.b 4.gg#
.	.	(24eL	.
.	.	24f#	.
.	.	24g#JJ	.
.	.	8e')	.
8D	8V	8r	8b
=202	=202	=202	=202
4D	4IV/V	4a	8cc#'L
.	.	.	(24eeL
.	.	.	24dd#
.	.	.	24cc#JJ
4D	4V7d/V	4a 4b	8dd#'L)
.	.	.	(24ff#L
.	.	.	24ee
.	.	.	24dd#JJ
=203	=203	=203	=203
4.D	4.Ib/V	4.g# 4.b	8ee'L)
.	.	.	(24eeL
.	.	.	24ff#
.	.	.	24gg#JJ
.	.	.	8ee'L)
8D	8V	8B	8bb'J
=204	=204	=204	=204
4D	4vi7/V	8c#'L	4b 4bb
.	.	(24eL	.
.	.	24d#	.
.	.	24c#JJ	.
4D	4V7b/V	8d#'L)	4b 4aa
.	.	(24f#L	.
.	.	24e	.
.	.	24d#JJ	.
=205	=205	=205	=205
4D	4I/V	8e'L)	4b 4gg#
.	.	(24g#L	.
.	.	24f#	.
.	.	24eJJ	.
4D	4V7c/V	8f#'L)	4b 4dd# 4bb
.	.	(24aL	.
.	.	24g#	.
.	.	24f#JJ	.
=206	=206	=206	=206
4D	4Ib/V	8g#'L)	4ee 4bb
.	.	(24bL	.
.	.	24g#	.
.	.	24eJJ	.
4D	4V/V	8d#'L)	4ff# 4bb
.	.	(24f#L	.
.	.	24d#	.
.	.	24BJJ)	.
=207	=207	=207	=207
2D	2r	2r;	2r;
=208	=208	=||208	=||208
*M6/8	*M6/8	*M6/8	*M6/8
4.D	4.I/V	4.r	4.ee
*-	*-	*-	*-
!!!COM: Beethoven
!!!OTL: 13 Variationen uber "Es war einmal ein alter Mann" aus "Das rote Kappchen" von K. Ditters von Dittersdorf
!!!Variation: Variation 5 d
**function	**harm	**kern	**kern
*	*	*clefF4	*clefG2
*	*	*k[f#c#g#]	*k[f#c#g#]
*M6/8	*M6/8	*M6/8	*M6/8
*A:	*A:	*A:	*A:
4.D	4.V	4.r	(4ee'
.	.	.	8ee')
=209	=209	=209	=209
.	.	.	q8ff#
4.D	4.V	4.r	(8eeL
.	.	.	8dd#
.	.	.	8eeJ)
*	*	*	*^
4.D	4.V7b/ii	(4A#' 4f#'	(4cc#'	4ff#'
.	.	8A#') 8f#'	8cc#')	8ee'
=210	=210	=210	=210	=210
.	.	.	.	q8ee
4.D	4.ii	4.B 4.f#	4.b	(8ddL
.	.	.	.	8cc#
.	.	.	.	8ddJ)
4.D	4.V7b	(4G#' 4e'	(4b'	4ee'
.	.	8G#') 8e'	8b')	8dd'
*	*	*	*v	*v
=211	=211	=211	=211
*	*	*^	*
.	.	.	.	q8dd
4.D	4.I	4A	4.e	(8cc#L
.	.	.	.	8b
.	.	8c#	.	8aJ)
*	*	*	*	*^
4D	4V7c	4B	4e	4g#	(4dd
8D	8I	8A	8e	8a	8cc#)
*	*	*v	*v	*	*
=212	=212	=212	=212	=212
4.D	4.Ic	[4.E [4.e	(4a	(4cc#
.	.	.	8f#	8ee
4D	4V	4E] 4e]	4g#;)	4b;)
*	*	*	*v	*v
*-	*-	*-	*-
!!!COM: Beethoven
!!!OTL: 13 Variationen uber "Es war einmal ein alter Mann" aus "Das rote Kappchen" von K. Ditters von Dittersdorf
!!!Variation: Variation 5 e
**function	**harm	**kern	**kern
*	*	*clefF4	*clefG2
*	*	*k[f#c#g#]	*k[f#c#g#]
*M2/4	*M2/4	*M2/4	*M2/4
*A:	*A:	*A:	*A:
8T	8V	8r	(8e
=213	=213	=213	=213
2T	2I	8r	8a'L)
.	.	(24f#LL	8b'
.	.	24e	.
.	.	24dJJ	.
.	.	8c#'L)	8cc#'
.	.	(24c#L	8dd'J
.	.	24B	.
.	.	24AJJ	.
=214	=214	=214	=214
*	*	*	*^
4.T	4.Vb	8G#'L)	2e 2b	4.ee
.	.	(24AL	.	.
.	.	24G#	.	.
.	.	24F#JJ	.	.
.	.	8G#'L)	.	.
8T	8V7	(24EL	.	(8dd
.	.	24F#	.	.
.	.	24G#JJ	.	.
*	*	*	*v	*v
=215	=215	=215	=215
2T	2I	8A'L)	8cc#')
.	.	(24F#L	8b'L 8bb'L
.	.	24E	.
.	.	24DJJ	.
.	.	8C#'L)	8cc#' 8ccc#'
.	.	(24C#L	8dd'J 8ddd'J
.	.	24BB	.
.	.	24AAJJ	.
=216	=216	=216	=216
*	*	*	*^
4.T	4.Vb	8GG#'L)	2ee	4.eee
.	.	(24AAL	.	.
.	.	24GG#	.	.
.	.	24FF#JJ	.	.
.	.	8GG#'L)	.	.
8T	8V7	(24EEL	.	(8ddd
.	.	24FF#	.	.
.	.	24GG#JJ	.	.
*	*	*	*v	*v
=217	=217	=217	=217
4T	4I	8AA'L)	8ee) 8ccc#
.	.	(24BBL	(8eeL 8ccc#
.	.	24C#	.
.	.	24DJJ	.
4D	4V7	8E'L)	8ddJ) 8bb
.	.	(24EL	(8dd 8bb
.	.	24F#	.
.	.	24G#JJ	.
=218	=218	=218	=218
4T	4I	8A')	8cc#L) 8aa
.	.	8r	(24aaL
.	.	.	24gg#
.	.	.	24ff#JJ
4T	4V	8r	8ee'L)
*	*	*clefG2	*
.	.	(24eLL	(24ff#L
.	.	24f#	24ee
.	.	24g#JJ	24ddJJ
=219	=219	=219	=219
4T	4I	8a')	8cc#'L)
.	.	8r	(24eeL
.	.	.	24dd
.	.	.	24cc#JJ
4T	4V7	8r	8b'L)
*	*	*clefF4	*
.	.	(24ELL	(24ddL
.	.	24F#	24cc#
.	.	24G#JJ	24bJJ
=220	=220	=220	=220
4T	4I	8A')	8a'L)
.	.	8r	(24aL
.	.	.	24g#
.	.	.	24f#JJ
4T	4V	8r	8e'L)
.	.	(24ELL	(24f#L
.	.	24F#	24e
.	.	24G#JJ	24dJJ
=221	=221	=221	=221
4T	4I	8A')	8c#'L)
.	.	8r	(24eL
.	.	.	24d
.	.	.	24c#JJ
4T	4V7	8r	8B'L)
.	.	(24EELL	(24dL
.	.	24FF#	24c#
.	.	24GG#JJ	24BJJ
=222	=222	=222	=222
4.T	4.I	4AA')	4A')
.	.	8r	8r
*-	*-	*-	*-
!!!COM: Beethoven
!!!OTL: 13 Variationen uber "Es war einmal ein alter Mann" aus "Das rote Kappchen" von K. Ditters von Dittersdorf
!!!Variation: Variation 6 a
**function	**harm	**kern	**kern
*	*	*clefF4	*clefG2
*	*	*k[]	*k[] 
*M2/4	*M2/4	*M2/4	*M2/4
*a:	*a:	*a:	*a:
8T	8V	8r	(8E
=223	=223	=223	=223
*	*	*^	*
2T	2i	(8AAL	2E	4A
.	.	8CJ	.	.
.	.	8AAL	.	4c
.	.	8CJ)	.	.
=224	=224	=224	=224	=224
2T	2Vb	(8GG#L	2E	4.e)
.	.	8BBJ	.	.
.	.	8GG#L	.	.
.	.	8BBJ)	.	([8f
=225	=225	=225	=225	=225
2T	2i	(8AAL	2E	8fL]
.	.	8CJ	.	8eJ
.	.	8AAL	.	8dL
.	.	8CJ)	.	8cJ
*	*	*	*v	*v
=226	=226	=226	=226
4.D	4.V	(8EEL	4B)
.	.	8GG#	.
.	.	8BBJ)	8r
*-	*-	*-	*-
!!!COM: Beethoven
!!!OTL: 13 Variationen uber "Es war einmal ein alter Mann" aus "Das rote Kappchen" von K. Ditters von Dittersdorf
!!!Variation: Variation 6 a2
**function	**harm	**kern	**kern
*	*	*clefF4	*clefG2
*	*	*k[]	*k[]
*M2/4	*M2/4	*M2/4	*M2/4
*a:	*a:	*a:	*a:
8T	8V	8r	(8E
=227	=227	=227	=227
*	*	*^	*
2T	2i	(8AAL	2E	4A
.	.	8CJ	.	.
.	.	8AAL	.	4c
.	.	8CJ)	.	.
=228	=228	=228	=228	=228
2T	2Vb	(8GG#L	2E	4.e)
.	.	8BBJ	.	.
.	.	8GG#L	.	.
.	.	8BBJ)	.	([8f
=229	=229	=229	=229	=229
2T	2i	(8AAL	2E	8fL]
.	.	8CJ	.	8eJ
.	.	8AAL	.	8dL
.	.	8CJ)	.	8cJ
*	*	*v	*v	*
=230	=230	=230	=230
4.D	4.V	(8EEL	4B)
.	.	8BB	.
.	.	8EJ)	8r
*-	*-	*-	*-
!!!COM: Beethoven
!!!OTL: 13 Variationen uber "Es war einmal ein alter Mann" aus "Das rote Kappchen" von K. Ditters von Dittersdorf
!!!Variation: Variation 6 b
**function	**harm	**kern	**kern
*	*	*clefF4	*clefG2
*	*	*k[]	*k[]
*M2/4	*M2/4	*M2/4	*M2/4
*a:	*a:	*a:	*a:
8D	8V	8r	(8B
=231	=231	=231	=231
*	*	*^	*
2D	2Vb/v	(8DD#L	2BB	8A#L
.	.	8FF#J	.	8BJ
.	.	8DD#L	.	4f#
.	.	8FF#J)	.	.
=232	=232	=232	=232	=232
2D	2i/v	(8EEL	2BB	4g
.	.	8GGJ	.	.
.	.	8EEL	.	8e'L)
.	.	8GGJ)	.	8BJ
=233	=233	=233	=233	=233
2D	2Vb/v	(8DD#L	2BB	(8A#L
.	.	8FF#J	.	8BJ
.	.	8DD#L	.	4f#
.	.	8FF#J)	.	.
=234	=234	=234	=234	=234
2D	2i/v	(8EEL	2BB	4g
.	.	8GGJ	.	.
.	.	8EEL	.	8e'L)
.	.	8GGJ)	.	8BJ
*	*	*v	*v	*
*-	*-	*-	*-
!!!COM: Beethoven
!!!OTL: 13 Variationen uber "Es war einmal ein alter Mann" aus "Das rote Kappchen" von K. Ditters von Dittersdorf
!!!Variation: Variation 6 c
**function	**harm	**kern	**kern
*	*	*clefF4	*clefG2
*	*	*k[]	*k[]
*M2/4	*M2/4	*M2/4	*M2/4
*a:	*a:	*a:	*a:
=235	=235	=235	=235
4P	4iv/v	(8AAL	(8cL
.	.	8EJ	8eJ
4D	4viioc/v	8AAL	4d#
.	.	8F#J	.
=236	=236	=236	=236
2T	2ib/v	8GGL	8f#L
.	.	8GJ	8eJ
.	.	8EL	8g)
.	.	8GGJ)	8r
=237	=237	=237	=237
4T	4iv/v	(8AAL	(8cL
.	.	8EJ	8eJ
4T	4viioc/v	8AAL	4d#
.	.	8F#J	.
=238	=238	=238	=238
2T	2ib/v	8GGL	8f#L
.	.	8GJ	8eJ
.	.	8EL	8b)
.	.	8GGJ)	8r
=239	=239	=239	=239
4T	4iv/v	(8AAL	(8cL
.	.	8EJ	8eJ
4T	4viioc/v	8AAL	4d#
.	.	8F#J	.
=T240	=240	=240	=240
2T	2ib/v	8GGL	8f#L
.	.	8GJ	8eJ
.	.	8EL	8g)
.	.	8GGJ)	8r
=241	=241	=241	=241
4T	4iv/v	(8AAL	(8cL
.	.	8GJ	8eJ
4T	4viioc/v	8AAL	4d#
.	.	8F#J	.
=242	=242	=242	=242
4T	4viioD7/V/v	8AA#L	8eL
.	.	8GJ	8gJ
4D	4V7/v	8BBL	4d#
.	.	8F#J 8A	.
=243	=243	=243	=243
4D	4ic/v	8BBL	8eL
.	.	8EJ 8G	8bJ
4D	4V7/v	8BBL	4d#
.	.	8F#J 8A	.
=244	=244	=244	=244
*	*	*	*^
2D	2ic/v	2BB)	4r	(4e'
.	.	.	4E 4G	4b')
=245	=245	=245	=245	=245
2D	2V7/v	2BB	4r	2d#
.	.	.	4F# 4A	.
*	*	*	*v	*v
=246	=246	=246	=246
2D	2r	2r;	2r;
=247	=247	=247	=247
2T	2i/V	(2E	(2e
*-	*-	*-	*-
!!!COM: Beethoven
!!!OTL: 13 Variationen uber "Es war einmal ein alter Mann" aus "Das rote Kappchen" von K. Ditters von Dittersdorf
!!!Variation: Variation 6 d
**function	**harm	**kern	**kern
*	*	*clefF4	*clefG2
*	*	*k[]	*k[]
*M2/4	*M2/4	*M2/4	*M2/4
*a:	*a:	*a:	*a:
=248	=248	=248	=248
2P	2iv	2D)	2A 2f)
=249	=249	=249	=249
*	*	*	*^
2D	2V7c	2BB 2E	2G#	[2d
=250	=250	=250	=250	=250
2T	2i	2AA 2E	2A	4d]
.	.	.	.	[4c
=251	=251	=251	=251	=251
2D	2V7	2EE 2D	2G#	4c]
.	.	.	.	4B
*	*	*	*v	*v
=252	=252	=252	=252
*	*	*^	*
4T	4i	(8AAL	[4E	(8AL
.	.	8CJ	.	8cJ
*	*	*v	*v	*
*-	*-	*-	*-
!!!COM: Beethoven
!!!OTL: 13 Variationen uber "Es war einmal ein alter Mann" aus "Das rote Kappchen" von K. Ditters von Dittersdorf
!!!Variation: Variation 6 e
**function	**harm	**kern	**kern
*	*	*clefF4	*clefG2
*	*	*k[]	*k[]
*M2/4	*M2/4	*M2/4	*M2/4
*a:	*a:	*a:	*a:
*	*	*^	*
4T	4i	8AAL	4E]	8eL
.	.	8CJ)	.	[8fJ
=253	=253	=253	=253	=253
2T	2Vb	(8GG#L	2E	4f]
.	.	8BBJ	.	.
.	.	8GG#L	.	8eL
.	.	8BBJ)	.	8dJ
=254	=254	=254	=254	=254
2T	2i	(8AAL	2E	8cL
.	.	8CJ	.	8g#J
.	.	8AAL	.	8aL
.	.	8CJ)	.	[8fJ
=255	=255	=255	=255	=255
2T	2Vb	(8GG#L	[2E	8f]
.	.	8BBJ	.	4e
.	.	8GG#L	.	.
.	.	8BBJ)	.	8d
=256	=256	=256	=256	=256
4T	4i	4AA	8EL]	4c
.	.	.	(8EJ	.
4T	4V7	8r	4D	4G# 4B
.	.	8EE	.	.
=257	=257	=257	=257	=257
4T	4VI	8r	4C)	4A)
.	.	4.FF	.	.
4T	4iv	.	(8C#L	([4A 4a
.	.	.	8DJ	.
=258	=258	=258	=258	=258
4T	4ic	8r	4.E	4A] 4c
.	.	4.EE	.	.
4T	4V7	.	.	4G# 4B
.	.	.	8D	.
=259	=259	=259	=259	=259
4T	4VI	8r	4C)	4A)
.	.	4.FF	.	.
4P	4iv	.	(8C#L	([4A 4a
.	.	.	8DJ	.
=260	=260	=260	=260	=260
4D	4ic	8r	4.E	4A] 4c
.	.	4.EE	.	.
4D	4V7	.	.	4G# 4B
.	.	.	8D)	.
=261	=261	=261	=261	=261
4.T	4.i	4.AA;	4.C;	4.A;)
*	*	*v	*v	*
*-	*-	*-	*-
!!!COM: Beethoven
!!!OTL: 13 Variationen uber "Es war einmal ein alter Mann" aus "Das rote Kappchen" von K. Ditters von Dittersdorf
!!!Variation: Variation 7 a
**function	**harm	**kern	**kern
*	*	*clefF4	*clefG2
*	*	*k[f#c#g#]	*k[f#c#g#]
*M6/8	*M6/8	*M6/8	*M6/8
*A:	*A:	*A:	*A:
8T	8V	8r	8e
=262	=262	=262	=262
2.T	2.I	8AA'L	16aLL
.	.	.	16e
.	.	8C#'	16c#
.	.	.	16e
.	.	8E'J	16a
.	.	.	16bJJ
.	.	8AA'L	16cc#LL
.	.	.	16a
.	.	8C#'	16e
.	.	.	16a
.	.	8E'J	16cc#
.	.	.	16ddJJ
=263	=263	=263	=263
2.T	2.Vb	8GG#'L	16eeLL
.	.	.	16b
.	.	8BB'	16e
.	.	.	16b
.	.	8E'J	16ee
.	.	.	16dd#JJ
.	.	8GG#'L	16eeLL
.	.	.	16b
.	.	8BB'	16e
.	.	.	16b
.	.	8E'J	16ee
.	.	.	16ddJJ
=264	=264	=264	=264
4.T	4.I	8AA'L	16cc#LL
.	.	.	16a
.	.	8C#'	16e
.	.	.	16a
.	.	8E'J	16cc#
.	.	.	16eeJJ
4T	4V7c	8BBL	16ddLL
.	.	.	16g#
.	.	8E	16e
.	.	.	16dd
8T	8I	8AAJ	16cc#
.	.	.	16aJJ
=265	=265	=265	=265
2D	2V	8EEL	16bLL
.	.	.	16g#
.	.	8GG#	16e
.	.	.	16b
.	.	8BBJ	16a
.	.	.	16f#JJ
.	.	4E	16bLL
.	.	.	16g#
8D	8r	.	16f#
.	.	.	16e
*-	*-	*-	*-
!!!COM: Beethoven
!!!OTL: 13 Variationen uber "Es war einmal ein alter Mann" aus "Das rote Kappchen" von K. Ditters von Dittersdorf
!!!Variation: Variation 7 a2
**function	**harm	**kern	**kern
*	*	*clefF4	*clefG2
*	*	*k[f#c#g#]	*k[f#c#g#]
*M6/8	*M6/8	*M6/8	*M6/8
*A:	*A:	*A:	*A:
8T	8V	8r	16d#
.	.	.	16eJJ
=266	=266	=266	=266
2.T	2.I	8AAL	16aLL
.	.	.	16e
.	.	8C#	16c#
.	.	.	16e
.	.	8EJ	16a
.	.	.	16bJJ
.	.	8AAL	16cc#LL
.	.	.	16a
.	.	8C#	16e
.	.	.	16a
.	.	8EJ	16cc#
.	.	.	16ddJJ
=267	=267	=267	=267
2.T	2.Vb	8GG#L	16eeLL
.	.	.	16b
.	.	8BB	16e
.	.	.	16b
.	.	8EJ	16ee
.	.	.	16dd#JJ
.	.	8GG#L	16eeLL
.	.	.	16b
.	.	8BB	16e
.	.	.	16b
.	.	8EJ	16ee
.	.	.	16ddJJ
=268	=268	=268	=268
4.T	4.I	8AAL	16cc#LL
.	.	.	16a
.	.	8C#	16e
.	.	.	16a
.	.	8EJ	16cc#
.	.	.	16eeJJ
4T	4V7c	8BBL	16ddLL
.	.	.	16g#
.	.	8E	16e
.	.	.	16dd
8T	8I	8AAJ	16cc#
.	.	.	16aJJ
=269	=269	=269	=269
2D	2V	8EEL	16bLL
.	.	.	16g#
.	.	8GG#	16e
.	.	.	16b
.	.	8BBJ	16a
.	.	.	16f#JJ
.	.	4E	4g# 4b
*-	*-	*-	*-
!!!COM: Beethoven
!!!OTL: 13 Variationen uber "Es war einmal ein alter Mann" aus "Das rote Kappchen" von K. Ditters von Dittersdorf
!!!Variation: Variation 7 b
**function	**harm	**kern	**kern
*	*	*clefF4	*clefG2
*	*	*k[f#c#g#]	*k[f#c#g#]
*M6/8	*M6/8	*M6/8	*M6/8
*A:	*A:	*A:	*A:
8T	8V	8r	8b
=270	=270	=270	=270
2.D	2.Vb/V	8DD#L	16bLL
.	.	.	16f#
.	.	8FF#	16B
.	.	.	16f#
.	.	8BBJ	16a#
.	.	.	16f#JJ
.	.	8DD#L	16bLL
.	.	.	16f#
.	.	8FF#	16B
.	.	.	16f#
.	.	8BBJ	16a
.	.	.	16f#JJ
=271	=271	=271	=271
2.D	2.V	8EEL	16g#LL
.	.	.	16e
.	.	8GG#	16B
.	.	.	16e
.	.	8BBJ	16f#
.	.	.	16eJJ
.	.	8EEL	16g#LL
.	.	.	16e
.	.	8GG#	16B
.	.	.	16e
.	.	8BBJ	16a
.	.	.	16eJJ
=272	=272	=272	=272
2.D	2.Vb/V	8DD#L	16bLL
.	.	.	16f#
.	.	8FF#	16B
.	.	.	16f#
.	.	8BBJ	16a#
.	.	.	16f#JJ
.	.	8DD#L	16bLL
.	.	.	16f#
.	.	8FF#	16B
.	.	.	16f#
.	.	8BBJ	16a
.	.	.	16f#JJ
=273	=273	=273	=273
4.D	4.V	8EEL	16g#LL
.	.	.	16e
.	.	8GG#	16B
.	.	.	16e
.	.	8BBJ	16f#
.	.	.	16BJJ
4D	4V	4E	16g#LL
.	.	.	16e
.	.	.	16B
.	.	.	16eJ
*-	*-	*-	*-
!!!COM: Beethoven
!!!OTL: 13 Variationen uber "Es war einmal ein alter Mann" aus "Das rote Kappchen" von K. Ditters von Dittersdorf
!!!Variation: Variation 7 c
**function	**harm	**kern	**kern
*	*	*clefF4	*clefG2
*	*	*k[f#c#g#]	*k[f#c#g#]
*M6/8	*M6/8	*M6/8	*M6/8
*A:	*A:	*A:	*A:
8D	8Vb	8GG#	8bJ
=274	=274	=274	=274
4.D	4.ii7b/V	8AAL	16B#LL
.	.	.	16c#
.	.	8E	16b
.	.	.	16c#
.	.	8F#J	16a
.	.	.	16c#JJ
4.D	4.V7/V	8BBL	16eLL
.	.	.	16d#
.	.	8F#	16a
.	.	.	16d#
.	.	8AJ	16a
.	.	.	16d#JJ
=275	=275	=275	=275
4.D	4.I/V	8EL	16f#LL
.	.	.	16e
.	.	8G#	16d#
.	.	.	16e
.	.	8BJ	16g#
.	.	.	16bJJ
4D	4I/V	8e	8eeL
.	.	8r	8gg#
8D	8Ib/V	8G#	8bJ
=276	=276	=276	=276
*	*	*clefG2	*
4.D	4.ii7b/V	8AL	16b#LL
.	.	.	16cc#
.	.	8e	16bb
.	.	.	16cc#
.	.	8f#J	16aa
.	.	.	16cc#JJ
4.D	4.V7/V	8BL	16eeLL
.	.	.	16dd#
.	.	8f#	16aa
.	.	.	16dd#
.	.	8aJ	16aa
.	.	.	16dd#JJ
=277	=277	=277	=277
4.D	4.I/V	8eL	16ff#LL
.	.	.	16ee
.	.	8g#J	16gg#
.	.	.	16ee
.	.	8r	16b
.	.	.	16g#JJ
4D	4I/V	4r	8eL
.	.	.	8g#
*	*	*clefF4	*
8D	8Ib/V	8GG#	8bJ
=278	=278	=278	=278
4.D	4.ii7b/V	8AAL	16B#LL
.	.	.	16c#
.	.	8E	16b
.	.	.	16c#
.	.	8F#J	16a
.	.	.	16c#JJ
4.D	4.V7/V	8BBL	16eLL
.	.	.	16d#
.	.	8F#	16a
.	.	.	16d#
.	.	8AJ	16a
.	.	.	16d#JJ
=279	=279	=279	=279
4.D	4.I/V	8EL	16f#LL
.	.	.	16e
.	.	8G#	16d#
.	.	.	16e
.	.	8BJ	16g#
.	.	.	16bJJ
4D	4I/V	8e	8eeL
.	.	8r	8gg#
8D	8Ib/V	8G#	8bJ
=280	=280	=280	=280
*	*	*clefG2	*
4.D	4.ii7b/V	8AL	16b#LL
.	.	.	16cc#
.	.	8e	16bb
.	.	.	16cc#
.	.	8f#J	16aa
.	.	.	16cc#JJ
4.D	4.V7/V	8BL	16eeLL
.	.	.	16dd#
.	.	8f#	16aa
.	.	.	16dd#
.	.	8aJ	16aa
.	.	.	16dd#JJ
=281	=281	=281	=281
4.D	4.Ic/V	8BL	16ff#LL
.	.	.	16ee
.	.	8g#	16dd#
.	.	.	16ee
.	.	8bJ	16bb
.	.	.	16eeJJ
4.D	4.Vb/V	8BL	16gg#LL
.	.	.	16ff#
.	.	8d#	16ee#
.	.	.	16ff#
.	.	8f#J	16bb
.	.	.	16ff#JJ
=282	=282	=282	=282
4.D	4.Ic/V	8BL	16aaLL
.	.	.	16gg#
.	.	8e	16ff#
.	.	.	16gg#
.	.	8g#J	16bb
.	.	.	16eeJJ
4.D	4.V7/V	8BL	16eeLL
.	.	.	16dd#
.	.	8f#	16cc#
.	.	.	16dd#
.	.	8aJ	16ff#
.	.	.	16bJJ
=283	=283	=283	=283
2.D	2.r	2.r;	2.r;
=284	=284	=284	=284
*	*	*clefF4	*
4.D	4.I/V	[4.E	4.r
*-	*-	*-	*-
!!!COM: Beethoven
!!!OTL: 13 Variationen uber "Es war einmal ein alter Mann" aus "Das rote Kappchen" von K. Ditters von Dittersdorf
!!!Variation: Variation 7 d
**function	**harm	**kern	**kern
*	*	*clefF4	*clefG2
*	*	*k[f#c#g#]	*k[f#c#g#]
*M6/8	*M6/8	*M6/8	*M6/8
*A:	*A:	*A:	*A:
4.D	4.V	4.E]	4.ee
=285	=285	=285	=285
2.D	2.V7d/ii	4.E 4.A#	4.f# 4.cc#
.	.	(4E' (4A#'	4f#' (4ff#'
.	.	8E') 8A#')	8f#' 8ff#')
=286	=286	=286	=286
*	*	*	*^
4.D	4.iib	4.D 4.B	4.f#	(8bL
.	.	.	.	8cc#
.	.	.	.	8bJ)
*	*	*	*v	*v
4.D	4.V7d	(4D' (4G#'	4e' (4ee'
.	.	8D') 8G#')	8e' 8ee')
=287	=287	=287	=287
*	*	*	*^
4.D	4.Ib	4.C# 4.A	4.e	(8aL
.	.	.	.	8b
.	.	.	.	8aJ)
*	*	*	*v	*v
*	*	*^	*
4D	4V7c	(4BB	4.E	(4g# 4dd
8D	8I	8AA)	.	8a) 8cc#
*	*	*v	*v	*
=288	=288	=288	=288
4.D	4.V	[4.EE [4.E	(4g# 4b
.	.	.	8f#) 8a
4D	4V	4EE] 4E]	4g#' 4b'
*-	*-	*-	*-
!!!COM: Beethoven
!!!OTL: 13 Variationen uber "Es war einmal ein alter Mann" aus "Das rote Kappchen" von K. Ditters von Dittersdorf
!!!Variation: Variation 7 e
**function	**harm	**kern	**kern
*	*	*clefF4	*clefG2
*	*	*k[f#c#g#]	*k[f#c#g#]
*M6/8	*M6/8	*M6/8	*M6/8
*A:	*A:	*A:	*A:
8T	8V	8r	8e
=289	=289	=289	=289
2.T	2.I	8AAL	16aLL
.	.	.	16e
.	.	8C#	16c#
.	.	.	16e
.	.	8EJ	16a
.	.	.	16bJJ
.	.	8AAL	16cc#LL
.	.	.	16a
.	.	8C#	16e
.	.	.	16a
.	.	8EJ	16cc#
.	.	.	16ddJJ
=290	=290	=290	=290
2.T	2.Vb	8GG#L	16eeLL
.	.	.	16b
.	.	8BB	16e
.	.	.	16b
.	.	8EJ	16ee
.	.	.	16dd#JJ
.	.	8GG#L	16eeLL
.	.	.	16b
.	.	8BB	16e
.	.	.	16b
.	.	8EJ	16ee
.	.	.	16ddJJ
=291	=291	=291	=291
2.T	2.I	8AAL	16cc#LL
.	.	.	16a
.	.	8C#	16e
.	.	.	16a
.	.	8EJ	16cc#
.	.	.	16bJJ
.	.	8AAL	16cc#LL
.	.	.	16a
.	.	8C#	16e
.	.	.	16a
.	.	8EJ	16cc#
.	.	.	16ddJJ
=292	=292	=292	=292
2.T	2.Vb	8GG#L	16eeLL
.	.	.	16b
.	.	8BB	16e
.	.	.	16b
.	.	8EJ	16ee
.	.	.	16dd#JJ
.	.	8GG#L	16eeLL
.	.	.	16b
.	.	8BB	16e
.	.	.	16b
.	.	8EJ	16ee
.	.	.	16ddJJ
=293	=293	=293	=293
4.T	4.I	8AAL	16cc#LL
.	.	.	16a
.	.	8E	16e
.	.	.	16a
.	.	8AAJ	16cc#
.	.	.	16eJJ
4.D	4.V7	8EL	16bLL
.	.	.	16g#
.	.	8EE	16e
.	.	.	16g#
.	.	8EJ	16b
.	.	.	16dJJ
=294	=294	=294	=294
4.T	4.I	8AAL	16aLL
.	.	.	16e
.	.	8C#	16c#
.	.	.	16e
.	.	8EJ	16a
.	.	.	16cc#JJ
4T	4I	(4A	16eeLL
.	.	.	16gg#
.	.	.	16aa
.	.	.	16ff#
8T	8IV	8D)	16ee
.	.	.	16ddJJ
=295	=295	=295	=295
4.T	4.Ic	8EL	16cc#LL
.	.	.	16a
.	.	8A	16e
.	.	.	16a
.	.	8EJ	16cc#
.	.	.	16eJJ
4.T	4.V7	8G#L	16bLL
.	.	.	16e
.	.	8E	16d
.	.	.	16e
.	.	8G#J	16b
.	.	.	16dJJ
=296	=296	=296	=296
4.T	4.I	8AL	16aLL
.	.	.	16e
.	.	8E	16c#
.	.	.	16e
.	.	8C#J	16a
.	.	.	16cc#JJ
4T	4I	(4AA	16eeLL
.	.	.	16gg#
.	.	.	16aa
.	.	.	16ff#
8T	8IV	8D)	16ee
.	.	.	16ddJJ
=297	=297	=297	=297
4.T	4.Ic	8EL	16cc#LL
.	.	.	16a
.	.	8A	16e
.	.	.	16a
.	.	8EJ	16cc#
.	.	.	16eJJ
4.T	4.V7	8G#L	16bLL
.	.	.	16e
.	.	8E	16d
.	.	.	16e
.	.	8G#J	16b
.	.	.	16dJJ
=298	=298	=298	=298
4.T	4.I	8AL	4c# 4a
.	.	8E	.
.	.	8C#J	8r
4T	4I	4AA	4r
*-	*-	*-	*-
!!!COM: Beethoven
!!!OTL: 13 Variationen uber "Es war einmal ein alter Mann" aus "Das rote Kappchen" von K. Ditters von Dittersdorf
!!!Variation: Variation 8 a
**function	**harm	**kern	**kern
*	*	*clefF4	*clefG2
*	*	*k[f#c#g#]	*k[f#c#g#]
*M2/4	*M2/4	*M2/4	*M2/4
*A:	*A:	*A:	*A:
8T	8V	8r	8e
=299	=299	=299	=299
2T	2I	(16c#LL	(8.aL
.	.	16eJ	.
.	.	8EJ	.
.	.	.	16bJk
.	.	16ALL	8.cc#L
.	.	16c#J	.
.	.	8EJ	.
.	.	.	16ddJk
=300	=300	=300	=300
2T	2V7	16BLL	8.eeL
.	.	16dJ	.
.	.	8EJ	.
.	.	.	16ff#Jk
.	.	16G#LL	8.eeL
.	.	16BJ	.
.	.	8EJ	.
.	.	.	16ddJk
=301	=301	=301	=301
4T	4I	16ALL	8.cc#L
.	.	16c#J	.
.	.	8EJ	.
.	.	.	16aJk
8T	8V7c	16BLL	8.ddL
.	.	16eJ	.
8T	8I	8AJ)	.
.	.	.	16cc#Jk
=302	=302	=302	=302
4.D	4.V7	16r	8.bL
.	.	(16G#LK	.
.	.	8eJ	.
.	.	.	16dd#Jk
.	.	16r	8ee)
.	.	16dLK	.
*-	*-	*-	*-
!!!COM: Beethoven
!!!OTL: 13 Variationen uber "Es war einmal ein alter Mann" aus "Das rote Kappchen" von K. Ditters von Dittersdorf
!!!Variation: Variation 8 a2
**function	**harm	**kern	**kern
*	*	*clefF4	*clefG2
*	*	*k[f#c#g#]	*k[f#c#g#]
*M2/4	*M2/4	*M2/4	*M2/4
*A:	*A:	*A:	*A:
8T	8V	8BJ)	16r
.	.	.	16e
=303	=303	=303	=303
2T	2I	(16c#LL	(8.aL
.	.	16eJ	.
.	.	8EJ	.
.	.	.	16bJk
.	.	16ALL	8.cc#L
.	.	16c#J	.
.	.	8EJ	.
.	.	.	16ddJk
=304	=304	=304	=304
2T	2V7	16BLL	8.eeL
.	.	16dJ	.
.	.	8EJ	.
.	.	.	16ff#Jk
.	.	16G#LL	8.eeL
.	.	16BJ	.
.	.	8EJ	.
.	.	.	16ddJk
=305	=305	=305	=305
4T	4I	16ALL	8.cc#L
.	.	16c#J	.
.	.	8EJ	.
.	.	.	16aJk
8T	8V7c	16BLL	8.ddL
.	.	16eJ	.
8T	8I	8AJ)	.
.	.	.	16cc#Jk
=306	=306	=306	=306
4.D	4.V	16r	8.bL
.	.	(16G#LK	.
.	.	8eJ	.
.	.	.	16dd#Jk
.	.	16r	8ee)
.	.	16BLK	.
*-	*-	*-	*-
!!!COM: Beethoven
!!!OTL: 13 Variationen uber "Es war einmal ein alter Mann" aus "Das rote Kappchen" von K. Ditters von Dittersdorf
!!!Variation: Variation 8 b
**function	**harm	**kern	**kern
*	*	*clefF4	*clefG2
*	*	*k[f#c#g#]	*k[f#c#g#]
*M2/4	*M2/4	*M2/4	*M2/4
*A:	*A:	*A:	*A:
8D	8V	8EJ)	16r
.	.	.	(16a#
=307	=307	=307	=307
2D	2Vb/V	16r	8.bL
.	.	(16D#LK	.
.	.	8BJ	.
.	.	.	16cc#Jk
.	.	16r	8.bL
.	.	16D#LK	.
.	.	8BJ	.
.	.	.	16aJk
=308	=308	=308	=308
2D	2V	16r	8.g#L
.	.	16ELK	.
.	.	8BJ	.
.	.	.	16aJk
.	.	16r	8b)
.	.	16ELK	.
.	.	8BJ	16r
.	.	.	(16a#
=309	=309	=309	=309
2D	2Vb/V	16r	8.bL
.	.	16D#LK	.
.	.	8BJ	.
.	.	.	16ee#Jk
.	.	16r	8.ff#L
.	.	16D#LK	.
.	.	8BJ)	.
.	.	.	16aJk
=310	=310	=310	=310
4.D	4.V	16r	8.g#L
.	.	(16ELK	.
.	.	8BJ	.
.	.	.	16cc#Jk
.	.	16r	16b)
.	.	16G#LK	16r
*-	*-	*-	*-
!!!COM: Beethoven
!!!OTL: 13 Variationen uber "Es war einmal ein alter Mann" aus "Das rote Kappchen" von K. Ditters von Dittersdorf
!!!Variation: Variation 8 c
**function	**harm	**kern	**kern
*	*	*clefF4	*clefG2
*	*	*k[f#c#g#]	*k[f#c#g#]
*M2/4	*M2/4	*M2/4	*M2/4
*A:	*A:	*A:	*A:
8D	8Vb	8eJ)	16r
.	.	.	(16b
=311	=311	=311	=311
4D	4IV/V	16r	8.b#L
.	.	(16ALK	.
.	.	8eJ	.
.	.	.	16cc#Jk
*	*	*clefG2	*
4D	4V7/V	16r	8.eeL
.	.	16aLK	.
.	.	8BJ	.
.	.	.	16dd#Jk
=312	=312	=312	=312
4D	4I/V	16r	8.ff#L
.	.	16eLK	.
.	.	8g#J	.
.	.	.	16eeJk
4D	4Ib/V	16r	8gg#)
.	.	16eLK	.
.	.	8G#J)	16r
.	.	.	(16b
=313	=313	=313	=313
*	*	*clefF4	*
4D	4IV/V	16r	8.b#L
.	.	(16AALK	.
.	.	8AJ	.
.	.	.	16cc#Jk
4D	4V/V	16r	8.eeL
.	.	16BBLK	.
.	.	8BJ	.
.	.	.	16dd#Jk
=314	=314	=314	=314
4D	4Ib/V	16r	8.ff#L
.	.	16GG#LK	.
.	.	8G#J	.
.	.	.	16eeJk
4D	4I/V	16r	8bb)
.	.	16EELK	.
.	.	8EJ)	16r
.	.	.	(16b
=315	=315	=315	=315
*	*	*clefG2	*
4D	4IV/V	16r	8.b#L
.	.	(16ALK	.
.	.	8eJ	.
.	.	.	16cc#Jk
4D	4V7/V	16r	8.eeL
.	.	16aLK	.
.	.	8BJ	.
.	.	.	16dd#Jk
=316	=316	=316	=316
4D	4I/V	16r	8.ff#L
.	.	16eLK	.
.	.	8g#J	.
.	.	.	16eeJk
4D	4Ib/V	16r	8gg#)
.	.	16eLK	.
.	.	8G#J)	16r
.	.	.	(16b
=317	=317	=317	=317
4D	4IV/V	16r	8.b#L
.	.	(16ALK	.
.	.	8eJ	.
.	.	.	16cc#Jk
4D	4V7/V	16r	8.eeL
.	.	16aLK	.
.	.	8BJ	.
.	.	.	16dd#Jk
=318	=318	=318	=318
4D	4I/V	16r	8.ff#L
.	.	16eLK	.
.	.	8g#J	.
.	.	.	16eeJk
4D	4Vb/V	16r	8.gg#L
.	.	16bLK	.
.	.	8d#J	.
.	.	.	16ff#Jk
=319	=319	=319	=319
4D	4I/V	16r	8.aaL
.	.	16bLK	.
.	.	8eJ	.
.	.	.	16gg#Jk
4D	4V7/V	16r	8.eeL
.	.	16aLK	.
.	.	8BJ)	.
.	.	.	16dd#Jk)
=320	=320	=320	=320
2D	2r	2r;	2r;
=321	=321	=321	=321
2D	2I/V	2r	(4ee
.	.	.	16dd#LL
.	.	.	16ee
.	.	.	16dd#
.	.	.	16eeJJ)
*-	*-	*-	*-
!!!COM: Beethoven
!!!OTL: 13 Variationen uber "Es war einmal ein alter Mann" aus "Das rote Kappchen" von K. Ditters von Dittersdorf
!!!Variation: Variation 8 d
**function	**harm	**kern	**kern
*	*	*clefF4	*clefG2
*	*	*k[f#c#g#]	*k[f#c#g#]
*M2/4	*M2/4	*M2/4	*M2/4
*A:	*A:	*A:	*A:
=322	=322	=322	=322
*	*	*	*^
2D	2V7b/ii	4.A# 4.f#	4.cc#	(8.ff#L
.	.	.	.	16ee#k
.	.	.	.	8eeJ)
.	.	8A# 8f#	8cc#	8ee
=323	=323	=323	=323	=323
4.D	4.ii	4.B 4.f#	4.b	(8.eeL
.	.	.	.	16dd#k
.	.	.	.	8ddJ)
8D	8V7b	8G# 8e	8b	8dd
=324	=324	=324	=324	=324
.	.	.	.	q8dd
4D	4I	4A 4e	4a	(16cc#LL
.	.	.	.	16b
.	.	.	.	16cc#
.	.	.	.	16eeJJ)
8D	8V7b	8G#'L 8e'	(8b'L	(8dd'L
8D	8I	8A'J 8e'	8a'J)	8cc#'J)
*	*	*	*v	*v
=325	=325	=325	=325
4D	4Ic	4.E 4.e	(8aL (8cc#L
.	.	.	8f# 8ee
8D	8V	.	8g#J) 8bJ)
*-	*-	*-	*-
!!!COM: Beethoven
!!!OTL: 13 Variationen uber "Es war einmal ein alter Mann" aus "Das rote Kappchen" von K. Ditters von Dittersdorf
!!!Variation: Variation 8 e
**function	**harm	**kern	**kern
*	*	*clefF4	*clefG2
*	*	*k[f#c#g#]	*k[f#c#g#]
*M2/4	*M2/4	*M2/4	*M2/4
*A:	*A:	*A:	*A:
8T	8V	8r	8e
=326	=326	=326	=326
2T	2I	(16c#LL	(8.aL
.	.	16eJ	.
.	.	8EJ	.
.	.	.	16bJk
.	.	16ALL	8.cc#L
.	.	16c#J	.
.	.	8EJ	.
.	.	.	16ddJk
=327	=327	=327	=327
2T	2V7	16BLL	8.eeL
.	.	16dJ	.
.	.	8EJ	.
.	.	.	16ff#Jk
.	.	16G#LL	8.eeL
.	.	16BJ	.
.	.	8EJ	.
.	.	.	16ddJk
=328	=328	=328	=328
2T	2I	16ALL	8.cc#L
.	.	16c#J	.
.	.	8EJ	.
.	.	.	16bJk
.	.	16c#LL	8.cc#L
.	.	16eJ	.
.	.	8EJ	.
.	.	.	16ddJk
=329	=329	=329	=329
2T	2V7	16BLL	8.eeL
.	.	16dJ	.
.	.	8EJ	.
.	.	.	16ff#Jk
.	.	16G#LL	8.eeL
.	.	16BJ	.
.	.	8EJ)	.
.	.	.	16ddJk
=330	=330	=330	=330
4T	4I	16r	8.cc#L)
.	.	(16ALK	.
.	.	8AAJ)	.
.	.	.	(16eJk 16cc#
4D	4V7	16r	8.dL 8.b
.	.	(16ELK	.
.	.	8EEJ)	.
.	.	.	16dJk 16b
=331	=331	=331	=331
4T	4I	(16AALL	8c#) 8a
.	.	16EJ	.
.	.	8AJ	16r
.	.	.	(16gg#
4T	4IV	16DLL	8.aaL
.	.	16AJ	.
.	.	8dJ	.
.	.	.	16ff#Jk
=332	=332	=332	=332
4T	4Ic	16ALL	8.eeL
.	.	16c#J	.
.	.	8EJ	.
.	.	.	16cc#Jk
4T	4V7	16G#LL	8.ddL
.	.	16dJ	.
.	.	8EJ	.
.	.	.	16bJk
=333	=333	=333	=333
4T	4vi	16F#LL	8.aL
.	.	16AJ	.
.	.	8c#J	.
.	.	.	16gg#Jk
4T	4IV	16DLL	8.aaL
.	.	16AJ	.
.	.	8dJ	.
.	.	.	16ff#Jk
=334	=334	=334	=334
4T	4Ic	16ALL	8.eeL
.	.	16c#J	.
.	.	8EJ	.
.	.	.	16ccc#Jk
4T	4V	16G#LL	8.dddL
.	.	16BJ	.
.	.	[8EJ	.
.	.	.	16bbJk
=335	=335	=335	=335
4.T	4.I	16ELL]	4aa)
.	.	16A	.
.	.	16E	.
.	.	16C#JJ	.
.	.	8AA)	8r
*-	*-	*-	*-
!!!COM: Beethoven
!!!OTL: 13 Variationen uber "Es war einmal ein alter Mann" aus "Das rote Kappchen" von K. Ditters von Dittersdorf
!!!Variation: Variation 9 a
**function	**harm	**kern	**kern
*	*	*clefF4	*clefG2
*	*	*k[f#c#g#]	*k[f#c#g#]
*M2/4	*M2/4	*M2/4	*M2/4
*A:	*A:	*A:	*A:
8T	8V	8r	8e
=336	=336	=336	=336
2T	2I	8AA 8C# 8E 8A	16aLL
.	.	.	16b
.	.	8r	16cc#
.	.	.	16ddJJ
.	.	4r	16eeLL
.	.	.	16ff#
.	.	.	16gg#
.	.	.	16aaJJ
=337	=337	=337	=337
2T	2V	8EE 8GG# 8BB 8E	(16bbLL
.	.	.	16ccc#)
.	.	8r	16bb
.	.	.	16aaJJ
.	.	16r	16gg#LL
.	.	16ELL	16ff#
.	.	16F#	16ee
.	.	16G#JJ	16ddJJ
=338	=338	=338	=338
2T	2I	16ALL	16cc#LL
.	.	16B	16b
.	.	16c	16a
.	.	16c#JJ	16g#JJ
.	.	16dLL	16f#LL
.	.	16c#	16e
.	.	16B	16d
.	.	16AJJ	16c#JJ
=339	=339	=339	=339
2D	2V	16G#LL	16BLL
.	.	16F#	16A
.	.	16E	16G#
.	.	16D#JJ	16F#JJ
.	.	16ELL	8E
.	.	16D	.
.	.	16C#	8r
.	.	16BBJJ	.
*-	*-	*-	*-
!!!COM: Beethoven
!!!OTL: 13 Variationen uber "Es war einmal ein alter Mann" aus "Das rote Kappchen" von K. Ditters von Dittersdorf
!!!Variation: Variation 9 a2
**function	**harm	**kern	**kern
*	*	*clefF4	*clefG2
*	*	*k[f#c#g#]	*k[f#c#g#]
*M2/4	*M2/4	*M2/4	*M2/4
*A:	*A:	*A:	*A:
=340	=340	=340	=340
2T	2I	8AA 8C# 8E 8A	16aLL
.	.	.	16b
.	.	8r	16cc#
.	.	.	16ddJJ
.	.	4r	16eeLL
.	.	.	16ff#
.	.	.	16gg#
.	.	.	16aaJJ
=341	=341	=341	=341
2T	2V	8EE 8GG# 8BB 8E	(16bbLL
.	.	.	16ccc#)
.	.	8r	16bb
.	.	.	16aaJJ
.	.	16r	16gg#LL
.	.	16ELL	16ff#
.	.	16F#	16ee
.	.	16G#JJ	16ddJJ
=342	=342	=342	=342
2T	2I	16ALL	16cc#LL
.	.	16B	16b
.	.	16c	16a
.	.	16c#JJ	16g#JJ
.	.	16dLL	16f#LL
.	.	16c#	16e
.	.	16B	16d
.	.	16AJJ	16c#JJ
=343	=343	=343	=343
4D	4V	16G#LL	16BLL
.	.	16F#	16A
.	.	16E	16G#
.	.	16D#JJ	16F#JJ
4D	4V	16ELL	8E
.	.	16BB	.
.	.	16GG#	8r
.	.	16EEJJ	.
*-	*-	*-	*-
!!!COM: Beethoven
!!!OTL: 13 Variationen uber "Es war einmal ein alter Mann" aus "Das rote Kappchen" von K. Ditters von Dittersdorf
!!!Variation: Variation 9 b
**function	**harm	**kern	**kern
*	*	*clefF4	*clefG2
*	*	*k[f#c#g#]	*k[f#c#g#]
*M2/4	*M2/4	*M2/4	*M2/4
*A:	*A:	*A:	*A:
=344	=344	=344	=344
2D	2Vb/V	8DD#	16bLL
.	.	.	16cc#
.	.	8r	16b
.	.	.	16aJJ
.	.	(16BLL	16g#LL
.	.	16A	16f#
.	.	16G#	16e
.	.	16F#JJ	16d#JJ
=345	=345	=345	=345
2D	2Vb	8G#)	16eLL
.	.	.	16f#
.	.	8r	16g#
.	.	.	16aJJ
.	.	(16ALL	16bLL
.	.	16G#	16cc#
.	.	16F#	16dd#
.	.	16EJJ	16eeJJ
=346	=346	=346	=346
2D	2Vb/V	8D#)	16bLL
.	.	.	16cc#
.	.	8r	16b
.	.	.	16aJJ
.	.	(16BLL	16g#LL
.	.	16A	16f#
.	.	16G#	16e
.	.	16F#JJ	16d#JJ
=347	=347	=347	=347
4D	4Vb	8G#)	16eLL
.	.	.	16f#
.	.	8r	16g#
.	.	.	16aJJ
*-	*-	*-	*-
!!!COM: Beethoven
!!!OTL: 13 Variationen uber "Es war einmal ein alter Mann" aus "Das rote Kappchen" von K. Ditters von Dittersdorf
!!!Variation: Variation 9 c
**function	**harm	**kern	**kern
*	*	*clefF4	*clefG2
*	*	*k[f#c#g#]	*k[f#c#g#]
*M2/4	*M2/4	*M2/4	*M2/4
*A:	*A:	*A:	*A:
4D	4V	(16ALL	16bLL
.	.	16G#	16cc#
.	.	16F#	16dd#
.	.	16EJJ	16eeJJ
=348	=348	=348	=348
4D	4IV/V	8A)	16cc#LL
.	.	.	16b#
.	.	8r	16cc#
.	.	.	16dd#JJ
4D	4vi/V	16c#LL	16eeLL
.	.	16B	16dd#
.	.	16c#	16ee
.	.	16d#JJ	16ff#JJ
=349	=349	=349	=349
4D	4I/V	16eLL	16gg#LL
.	.	16d#	16ff#
.	.	16e	16gg#
.	.	16f#JJ	16aaJJ
4D	4Ib/V	8g#L	16bbLL
.	.	.	16gg#
.	.	8G#J	16ee
.	.	.	16bJJ
=350	=350	=350	=350
.	.	.	q8dd#
4.D	4.IV/V	8A	16cc#LL
.	.	.	16b#
.	.	8r	16cc#
.	.	.	16dd#JJ
.	.	16ALL	16cc#LL
.	.	16c#	16ee
8D	8viiob/V	16F#	16dd#
.	.	16AJJ	16ff#JJ
=351	=351	=351	=351
8D	8Ib/V	16G#LL	16eeLL
.	.	16B	16gg#
8D	8V7b/V	16D#	16ff#
.	.	16BJJ	16aaJJ
4D	4I/V	16ELL	16gg#LL
.	.	16G#	16ee
.	.	16B	16b
.	.	16eJJ	16g#JJ
=352	=352	=352	=352
4D	4IV/V	8A	16cc#LL
.	.	.	16b#
.	.	8r	16cc#
.	.	.	16dd#JJ
4D	4vi/V	16c#LL	16eeLL
.	.	16B	16dd#
.	.	16c#	16ee
.	.	16d#JJ	16ff#JJ
=353	=353	=353	=353
4D	4I/V	16eLL	16gg#LL
.	.	16d#	16ff#
.	.	16e	16gg#
.	.	16f#JJ	16aaJJ
4D	4Ib/V	8g#L	16bbLL
.	.	.	16gg#
.	.	8G#J	16ee
.	.	.	16bJJ
=354	=354	=354	=354
.	.	.	q8dd#
4.D	4.IV/V	8A	16cc#LL
.	.	.	16b#
.	.	8r	16cc#
.	.	.	16dd#JJ
.	.	16ALL	16cc#LL
.	.	16c#	16ee
8D	8viiob/V	16F#	16dd#
.	.	16AJJ	16ff#JJ
=355	=355	=355	=355
4.D	4.Ib/V	8G#	16eeLL
.	.	.	16dd#
.	.	8r	16ee
.	.	.	16ff#JJ
.	.	16G#LL	16eeLL
.	.	16B	16gg#
8D	8V7b/V	16D#	16ff#
.	.	16BJJ	16aaJJ
=356	=356	=356	=356
4D	4I/V	16ELL	16gg#LL
.	.	16G#	16bb
.	.	16B	16gg#
.	.	16eJJ	16bbJJ
4D	4V/V	16BBLL	16dd#LL
.	.	16D#	16ff#
.	.	16F#	16dd#
.	.	16BJJ	16ff#JJ
=357	=357	=357	=357
2D	2r	2r;	2r;
=358	=358	=358	=358
*M2/2	*M2/2	*M2/2	*M2/2
2.D	2.I/V	2.EE	2.E
*-	*-	*-	*-
!!!COM: Beethoven
!!!OTL: 13 Variationen uber "Es war einmal ein alter Mann" aus "Das rote Kappchen" von K. Ditters von Dittersdorf
!!!Variation: Variation 9 d
**function	**harm	**kern	**kern
*	*	*clefF4	*clefG2
*	*	*k[f#c#g#]	*k[f#c#g#]
*M2/2	*M2/2	*M2/2	*M2/2
*A:	*A:	*A:	*A:
4D	4V	4r	4e
=359	=359	=359	=359
1D	1V7b/ii	8AA#L	4e
.	.	8F#	.
.	.	8AA#	4e
.	.	8F#J	.
.	.	8AA#L	4f#
.	.	8F#	.
.	.	8AA#	4c#
.	.	8F#J	.
=360	=360	=360	=360
2D	2ii	8BBL	4d
.	.	8F#	.
.	.	8D	4B
.	.	8BBJ	.
2D	2V7b	8GG#L	4e
.	.	8E	.
.	.	8BB	4d
.	.	8GG#J	.
=361	=361	=361	=361
2D	2I	8AAL	4c#
.	.	8E	.
.	.	8C#	4A
.	.	8EJ	.
4D	4V7c	8BBL	4d
.	.	8E	.
4D	4I	8AA	4c#
.	.	8EJ	.
=362	=362	=362	=362
.	.	.	q8c#
2.D	2.V	2.EE	(8B'L
.	.	.	8A'
.	.	.	8B'
.	.	.	8c#'J)
4.D	4.V	.	4.B
.	.	8r	.
*-	*-	*-	*-
!!!COM: Beethoven
!!!OTL: 13 Variationen uber "Es war einmal ein alter Mann" aus "Das rote Kappchen" von K. Ditters von Dittersdorf
!!!Variation: Variation 9 e
**function	**harm	**kern	**kern
*	*	*clefF4	*clefG2
*	*	*k[f#c#g#]	*k[f#c#g#]
*M2/4	*M2/4	*M2/4	*M2/4
*A:	*A:	*A:	*A:
8T	8V	8r	8e
=363	=363	=363	=363
2T	2I	8AA 8C# 8E 8A	16aLL
.	.	.	16b
.	.	8r	16cc#
.	.	.	16ddJJ
.	.	4r	16eeLL
.	.	.	16ff#
.	.	.	16gg#
.	.	.	16aaJJ
=364	=364	=364	=364
2T	2V7	(16ELL	(16bbLL
.	.	16G#	16gg#
.	.	16B	16ee
.	.	16dJJ	16ddJJ
.	.	16eLL	16bLL
.	.	16d	16g#
.	.	16B	16ee
.	.	16G#JJ	16ddJJ
=365	=365	=365	=365
2T	2I	8A)	16cc#LL)
.	.	.	16b
.	.	8r	16cc#
.	.	.	16ddJJ
.	.	4r	16eeLL
.	.	.	16ff#
.	.	.	16gg#
.	.	.	16aaJJ
=366	=366	=366	=366
2T	2V7	(16ELL	(16bbLL
.	.	16G#	16gg#
.	.	16B	16ee
.	.	16dJJ	16ddJJ
.	.	16eLL	16bLL
.	.	16d	16g#
.	.	16B	16ee
.	.	16G#JJ	16ddJJ
=367	=367	=367	=367
8T	8I	8AL)	16cc#LL)
.	.	.	16b
8T	8vi	8F#J	16a
.	.	.	16cc#JJ
8P	8iib	8DL	16bLL
.	.	.	16dd
8D	8V	8EJ	16g#
.	.	.	16bJJ
=368	=368	=368	=368
2T	2I	8AA	16aLL
.	.	.	(16aa
.	.	8r	16gg#
.	.	.	16ff#JJ
.	.	16r	16eeLL
.	.	16f#LL	16dd
.	.	16e	16cc#
.	.	16d#JJ	16bJJ
=369	=369	=369	=369
4.T	4.Ic	16eLL	16cc#LL
.	.	16d	16dd
.	.	16c#	16ee
.	.	16BJJ	16ff#JJ
.	.	16c#LL	16eeLL
.	.	16d	16dd)
8T	8V	16e	16cc#'
.	.	16EJJ	16b'JJ
=370	=370	=370	=370
2T	2I	8A	16aLL
.	.	.	(16aa
.	.	8r	16gg#
.	.	.	16ff#JJ
.	.	16r	16eeLL
.	.	16F#LL	16dd
.	.	16E	16cc#
.	.	16D#JJ	16bJJ
=371	=371	=371	=371
4.T	4.Ic	16ELL	16cc#LL
.	.	16D	16dd
.	.	16C#	16ee
.	.	16BBJJ	16ff#JJ
.	.	16C#LL	16eeLL
.	.	16D	16dd)
8T	8V	16E	16cc#'
.	.	16EEJJ	16b'JJ
=372	=372	=372	=372
4.T	4.I	16AALL	4a
.	.	16EE	.
.	.	16CC#	.
.	.	16EEJJ	.
.	.	8AAA	8r
*-	*-	*-	*-
!!!COM: Beethoven
!!!OTL: 13 Variationen uber "Es war einmal ein alter Mann" aus "Das rote Kappchen" von K. Ditters von Dittersdorf
!!!Variation: Variation 10 a
**function	**harm	**kern	**kern
*	*	*clefF4	*clefG2
*	*	*k[f#c#g#]	*k[f#c#g#]
*M2/4	*M2/4	*M2/4	*M2/4
*A:	*A:	*A:	*A:
8T	8V	8r	8e
=373	=373	=373	=373
*	*	*^	*
2T	2I	2A	(8c#L	(8.aL
.	.	.	8eJ	.
.	.	.	.	48bLL
.	.	.	.	48a
.	.	.	.	48g#
.	.	.	4c#)	8a'L)
.	.	.	.	8a'J
=374	=374	=374	=374	=374
2T	2V7b	2G#	(8dL	(8.eeL
.	.	.	8eJ	.
.	.	.	.	48ff#LL
.	.	.	.	48ee
.	.	.	.	48dd#
.	.	.	4d)	8ee'L)
.	.	.	.	8ee'J
=375	=375	=375	=375	=375
2T	2I	4A	(8c#L	(8.cc#L
.	.	.	8eJ	.
.	.	.	.	48ddLL
.	.	.	.	48cc#
.	.	.	.	48b
*	*	*v	*v	*
.	.	8c#L	8cc#L
.	.	8BJ	8ddJ
=376	=376	=376	=376
4T	4I	8AL	8eeL
.	.	8c#J	8aJ 8cc#
4D	4V	8e)	8g#) 8b
.	.	8r	8r
*-	*-	*-	*-
!!!COM: Beethoven
!!!OTL: 13 Variationen uber "Es war einmal ein alter Mann" aus "Das rote Kappchen" von K. Ditters von Dittersdorf
!!!Variation: Variation 10 a2
**function	**harm	**kern	**kern
*	*	*clefF4	*clefG2
*	*	*k[f#c#g#]	*k[f#c#g#]
*M2/4	*M2/4	*M2/4	*M2/4
*A:	*A:	*A:	*A:
=377	=377	=377	=377
*	*	*^	*
2T	2I	2A	(8c#L	(8.aL
.	.	.	8eJ	.
.	.	.	.	48bLL
.	.	.	.	48a
.	.	.	.	48g#
.	.	.	4c#)	8a'L)
.	.	.	.	8a'J
=378	=378	=378	=378	=378
2T	2V7b	2G#	(8dL	(8.eeL
.	.	.	8eJ	.
.	.	.	.	48ff#LL
.	.	.	.	48ee
.	.	.	.	48dd#
.	.	.	4d)	8ee'L)
.	.	.	.	8ee'J
=379	=379	=379	=379	=379
2T	2I	4A	(8c#L	4cc#
.	.	.	8eJ	.
.	.	.	.	q8dd
*	*	*v	*v	*
.	.	8c#L	(16cc#LL
.	.	.	16b
.	.	8BJ	16cc#
.	.	.	16ddJJ
=380	=380	=380	=380
4T	4I	8AL	16ff#LL
.	.	.	16ee
.	.	8c#J	16dd
.	.	.	16cc#JJ
4D	4V	8e)	8b)
.	.	8r	8r
*-	*-	*-	*-
!!!COM: Beethoven
!!!OTL: 13 Variationen uber "Es war einmal ein alter Mann" aus "Das rote Kappchen" von K. Ditters von Dittersdorf
!!!Variation: Variation 10 b
**function	**harm	**kern	**kern
*	*	*clefF4	*clefG2
*	*	*k[f#c#g#]	*k[f#c#g#]
*M2/4	*M2/4	*M2/4	*M2/4
*A:	*A:	*A:	*A:
=381	=381	=381	=381
*	*	*^	*
2D	2V7b/V	2D# 2B	4F#	(8.bL
.	.	.	.	48cc#LL
.	.	.	.	48b
.	.	.	.	48a#
.	.	.	4A	8b'L)
.	.	.	.	8b'J
=382	=382	=382	=382	=382
2D	2V	8E 8B	8G#	(8.gg#L
*	*	*v	*v	*
.	.	8r	.
.	.	.	48aaLL
.	.	.	48gg#
.	.	.	48ff#
.	.	4r	8ee'L)
.	.	.	8gg#'J
=383	=383	=383	=383
*	*	*^	*
2D	2V7b/V	2D# 2B	4F#	(8.bL
.	.	.	.	48cc#LL
.	.	.	.	48b
.	.	.	.	48a#
.	.	.	4A	8b'L)
.	.	.	.	8b'J
=384	=384	=384	=384	=384
4.D	4.V	8E 8B	8G#	(8.gg#L
*	*	*v	*v	*
.	.	8r	.
.	.	.	48aaLL
.	.	.	48gg#
.	.	.	48ff#
.	.	4r	8ee'L)
.	.	.	8bb'J
*-	*-	*-	*-
!!!COM: Beethoven
!!!OTL: 13 Variationen uber "Es war einmal ein alter Mann" aus "Das rote Kappchen" von K. Ditters von Dittersdorf
!!!Variation: Variation 10 c
**function	**harm	**kern	**kern
*	*	*clefF4	*clefG2
*	*	*k[f#c#g#]	*k[f#c#g#]
*M2/4	*M2/4	*M2/4	*M2/4
*A:	*A:	*A:	*A:
=385	=385	=385	=385
4.D	4.IV/V	4A	(8.cc#L
.	.	.	48dd#LL
.	.	.	48cc#
.	.	.	48b#
.	.	8r	8cc#'L)
8D	8V7d/V	8A' 8B'	8dd#'J
=386	=386	=386	=386
2D	2Ib/V	4G# 4B	8ee'L
.	.	.	8ff#'J
.	.	16r	8gg#'
*	*	*clefG2	*
.	.	(16eLL	.
.	.	16f#	8r
.	.	16g#JJ	.
=387	=387	=387	=387
4.D	4.IV/V	4a')	(8.cc#L
.	.	.	48dd#LL
.	.	.	48cc#
.	.	.	48b#
.	.	8r	8cc#'L)
8D	8V7d/V	8a'	8dd#'J
=388	=388	=388	=388
4D	4Ib/V	4g#'	8ee'L
.	.	.	8gg#'J
4D	4I/V	16r	8bb'
*	*	*clefF4	*
.	.	(16ELL	.
.	.	16F#	8r
.	.	16G#JJ	.
=389	=389	=389	=389
4.D	4.IV/V	4A')	(8.cc#L
.	.	.	48dd#LL
.	.	.	48cc#
.	.	.	48b#
.	.	8r	8cc#'L)
8D	8V7d/V	8A' 8B'	8dd#'J
=390	=390	=390	=390
2D	2Ib/V	4G#' 4B'	8ee'L
.	.	.	8ff#'J
.	.	16r	8gg#'
*	*	*clefG2	*
.	.	(16eLL	.
.	.	16f#	8r
.	.	16g#JJ	.
=391	=391	=391	=391
4.D	4.IV/V	4a')	(8.cc#L
.	.	.	48dd#LL
.	.	.	48cc#
.	.	.	48b#
.	.	8r	8cc#'L)
8D	8V7d/V	8a'	8dd#'J
=392	=392	=392	=392
4D	4Ib/V	8g#'	(8.eeL
.	.	8r	.
.	.	.	48ff#LL
.	.	.	48ee
.	.	.	48dd#
4D	4I/V	8r	8ee'L)
.	.	8e'	8gg#'J
=393	=393	=393	=393
4D	4Vb/V	8d#'	(8.bbL
.	.	8r	.
.	.	.	48ccc#LL
.	.	.	48bb
.	.	.	48aa#
4D	4V/V	8B'	8bb'L)
.	.	8r	8ddd#'J
=394	=394	=394	=394
2D	2r	2r;	2r;
=395	=395	=395	=395
*	*	*clefF4	*
4.D	4.I/V	8r	4.eee
.	.	(8e	.
.	.	8c#L	.
*-	*-	*-	*-
!!!COM: Beethoven
!!!OTL: 13 Variationen uber "Es war einmal ein alter Mann" aus "Das rote Kappchen" von K. Ditters von Dittersdorf
!!!Variation: Variation 10 d
**function	**harm	**kern	**kern
*	*	*clefF4	*clefG2
*	*	*k[f#c#g#]	*k[f#c#g#]
*M2/4	*M2/4	*M2/4	*M2/4
*A:	*A:	*A:	*A:
8T	8Ib	8BJ	8eee
=396	=396	=396	=396
2T	2V7b/ii	4A#')	[8eeeL
.	.	.	32eeeLL]
.	.	.	(32gg#
.	.	.	32ff#
.	.	.	32ee#JJJ
.	.	8r	8ff#'L)
.	.	(8A# 8f#	(8eeeJ
=397	=397	=397	=397
4T	4ii	4B')	[8dddL)
.	.	.	32dddLL]
.	.	.	(32ff#
.	.	.	32ee
.	.	.	32dd#JJJ
4T	4V7b	8r	8ee'L)
.	.	(8G# 8e	(8dddJ
=398	=398	=398	=398
4T	4I	8A')	8ccc#'L)
.	.	8r	(16aaL
.	.	.	16gg#JJ
4P	4IV7	8D 8d	16ff#LL
.	.	.	16ee
.	.	8r	16dd
.	.	.	16cc#JJ)
=399	=399	=399	=399
2D	2V	8E 8e	(16cc#LL
.	.	.	16b
.	.	8r	16a#
.	.	.	16bJJ
.	.	4r	16eeLL
.	.	.	16dd
.	.	.	16cc#
.	.	.	16bJJ)
*-	*-	*-	*-
!!!COM: Beethoven
!!!OTL: 13 Variationen uber "Es war einmal ein alter Mann" aus "Das rote Kappchen" von K. Ditters von Dittersdorf
!!!Variation: Variation 10 e
**function	**harm	**kern	**kern
*	*	*clefF4	*clefG2
*	*	*k[f#c#g#]	*k[f#c#g#]
*M2/4	*M2/4	*M2/4	*M2/4
*A:	*A:	*A:	*A:
=400	=400	=400	=400
*	*	*^	*
2T	2I	2A	(8c#L	(8.aL
.	.	.	8eJ	.
.	.	.	.	48bLL
.	.	.	.	48a
.	.	.	.	48g#
.	.	.	4c#)	8a'L)
.	.	.	.	8a'J
=401	=401	=401	=401	=401
2T	2V7b	2G#	(8dL	(8.eeL
.	.	.	8eJ	.
.	.	.	.	48ff#LL
.	.	.	.	48ee
.	.	.	.	48dd#
.	.	.	4d)	8ee'L)
.	.	.	.	8ee'J
=402	=402	=402	=402	=402
2T	2I	2A	(8c#L	(8.aaL
.	.	.	8eJ	.
.	.	.	.	48bbLL
.	.	.	.	48aa
.	.	.	.	48gg#
.	.	.	4c#)	8aa'L)
.	.	.	.	8aa'J
=403	=403	=403	=403	=403
2T	2V7b	2G#	(8dL	(8.eeeL
.	.	.	8eJ	.
.	.	.	.	48fffLL
.	.	.	.	48eee
.	.	.	.	48ddd#
.	.	.	4d)	8eee'L)
.	.	.	.	8eee'J
=404	=404	=404	=404	=404
4.T	4.I	4.A	(8c#	(8.ccc#L
.	.	.	4e)	.
.	.	.	.	48dddLL
.	.	.	.	48ccc#
.	.	.	.	48bb
.	.	.	.	8ccc#'L)
8D	8V7	8E'	8d'	8bb'J
=405	=405	=405	=405	=405
4T	4I	8A	8c#	8aa
.	.	8r	8r	8r
8T	8IV	16DLL	4r	8r
.	.	16E	.	.
8T	8viio/V	16F#	.	8a 8aa
.	.	16D#JJ	.	.
=406	=406	=406	=406	=406
4.T	4.Ic	4.E	(8E	(8.cc#L
.	.	.	4e)	.
.	.	.	.	48ddLL
.	.	.	.	48cc#
.	.	.	.	48b
.	.	.	.	8cc#'L)
8T	8V7	8E'	8d'	8b'J
=407	=407	=407	=407	=407
4T	4I	8A	8c#	8a
.	.	8r	8r	8r
8T	8IV	4r	16dLL	8r
.	.	.	16e	.
8T	8viio/V	.	16f#	8a 8aa
.	.	.	16d#JJ	.
=408	=408	=408	=408	=408
4.T	4.Ic	(8e	4.e	(8.cc#L
.	.	4E)	.	.
.	.	.	.	48ddLL
.	.	.	.	48cc#
.	.	.	.	48b
.	.	.	.	8cc#'L)
8T	8V7	8E'	8d'	8b'J
*	*	*v	*v	*
=409	=409	=409	=409
4.T	4.I	4A 4c#	4a
.	.	8r	8r
*-	*-	*-	*-
!!!COM: Beethoven
!!!OTL: 13 Variationen uber "Es war einmal ein alter Mann" aus "Das rote Kappchen" von K. Ditters von Dittersdorf
!!!Variation: Variation 11 a
**function	**harm	**kern	**kern
*	*	*clefF4	*clefG2
*	*	*k[f#c#g#]	*k[f#c#g#]
*M6/8	*M6/8	*M6/8	*M6/8
*A:	*A:	*A:	*A:
8T	8V	8EE'	8r
=410	=410	=410	=410
2.T	2.I	8AA'L	16eeLL
.	.	.	16e
.	.	8EE'	16f#
.	.	.	16e
.	.	(8BBJ	16f#
.	.	.	16eJJ
.	.	8C#'L)	16eeLL
.	.	.	16e
.	.	8AA'	16f#
.	.	.	16e
.	.	(8DJ	16f#
.	.	.	16eJJ
=411	=411	=411	=411
2.T	2.Vc	8E'L)	16eeLL
.	.	.	16e
.	.	8BB'	16f#
.	.	.	16e
.	.	(8F#J	16f#
.	.	.	16eJJ
.	.	8E'L)	16g#LL
.	.	.	16e
.	.	8BB'	16f#
.	.	.	16e
.	.	(8DJ	16f#
.	.	.	16eJJ
=412	=412	=412	=412
4.T	4.I	8C#'L)	16aLL
.	.	.	16e
.	.	8AA'	16f#
.	.	.	16e
.	.	(8EJ	16f#
.	.	.	16eJJ
4.T	4.IV7	8D'L)	16cc#LL
.	.	.	16e
.	.	8AA'	16f#
.	.	.	16e
.	.	(8C#J	16f#
.	.	.	16eJJ
=413	=413	=413	=413
2T	2Vc	8BB'L)	16eeLL
.	.	.	16e
.	.	8EE'	16f#
.	.	.	16e
.	.	8AA'J	16f#
.	.	.	16eJJ
.	.	8BB'	16f#LL
.	.	.	16e
8T	8Vc	8r	16f#
.	.	.	16e
*-	*-	*-	*-
!!!COM: Beethoven
!!!OTL: 13 Variationen uber "Es war einmal ein alter Mann" aus "Das rote Kappchen" von K. Ditters von Dittersdorf
!!!Variation: Variation 11 a2
**function	**harm	**kern	**kern
*	*	*clefF4	*clefG2
*	*	*k[f#c#g#]	*k[f#c#g#]
*M6/8	*M6/8	*M6/8	*M6/8
*A:	*A:	*A:	*A:
8T	8V	8EE'	16f#
.	.	.	16eJJ
=414	=414	=414	=414
2.T	2.I	8AA'L	16eeLL
.	.	.	16e
.	.	8EE'	16f#
.	.	.	16e
.	.	(8BBJ	16f#
.	.	.	16eJJ
.	.	8C#'L)	16eeLL
.	.	.	16e
.	.	8AA'	16f#
.	.	.	16e
.	.	(8DJ	16f#
.	.	.	16eJJ
=415	=415	=415	=415
2.T	2.Vc	8E'L)	16eeLL
.	.	.	16e
.	.	8BB'	16f#
.	.	.	16e
.	.	(8F#J	16f#
.	.	.	16eJJ
.	.	8E'L)	16g#LL
.	.	.	16e
.	.	8BB'	16f#
.	.	.	16e
.	.	(8DJ	16f#
.	.	.	16eJJ
=416	=416	=416	=416
4.T	4.I	8C#'L)	16aLL
.	.	.	16e
.	.	8AA'	16f#
.	.	.	16e
.	.	(8EJ	16f#
.	.	.	16eJJ
4.T	4.IV7	8D'L)	16cc#LL
.	.	.	16e
.	.	8AA'	16f#
.	.	.	16e
.	.	(8C#J	16f#
.	.	.	16eJJ
=417	=417	=417	=417
2T	2Vc	8BB'L)	16eeLL
.	.	.	16e
.	.	8EE'	16f#
.	.	.	16e
.	.	8AA'J	16f#
.	.	.	16eJJ
.	.	8BB'	16f#LL
.	.	.	16e
8T	8Vc	8r	16f#
.	.	.	16e
*-	*-	*-	*-
!!!COM: Beethoven
!!!OTL: 13 Variationen uber "Es war einmal ein alter Mann" aus "Das rote Kappchen" von K. Ditters von Dittersdorf
!!!Variation: Variation 11 b
**function	**harm	**kern	**kern
*	*	*clefF4	*clefG2
*	*	*k[f#c#g#]	*k[f#c#g#]
*M6/8	*M6/8	*M6/8	*M6/8
*A:	*A:	*A:	*A:
8T	8V	8BB'	16f#
.	.	.	16eJJ
=418	=418	=418	=418
2.D	2.V7/V	8BB'L	8d#L
.	.	8FF#'	16AL 16B
.	.	.	16d#
.	.	(8C#J	16A 16B
.	.	.	16d#JJ
.	.	8BB'L)	16F#LL 16B
.	.	.	16d#
.	.	8FF#'	16F# 16B
.	.	.	16d#
.	.	(8AAJ	16F# 16B
.	.	.	16d#JJ
=419	=419	=419	=419
2.D	2.V	8GG#'L)	16G#LL 16B
.	.	.	16e
.	.	8EE'	16G# 16B
.	.	.	16e
.	.	(8AAJ	16G# 16B
.	.	.	16eJJ
.	.	8BB'L)	16G#LL 16B
.	.	.	16e
.	.	8EE'	16G# 16B
.	.	.	16e
.	.	(8BBJ	16G# 16B
.	.	.	16eJJ
=420	=420	=420	=420
2.D	2.V7/V	8BB'L)	16ALL 16B
.	.	.	16d#
.	.	8FF#'	16A 16B
.	.	.	16d#
.	.	(8C#J	16A 16B
.	.	.	16d#JJ
.	.	8BB'L)	16F#LL 16B
.	.	.	16d#
.	.	8FF#'	16F# 16B
.	.	.	16d#
.	.	(8AAJ	16F# 16B
.	.	.	16d#JJ
=421	=421	=421	=421
2D	2V	8GG#'L)	16G#LL 16B
.	.	.	16e
.	.	8EE'	16G# 16B
.	.	.	16e
.	.	(8AAJ	16G# 16B
.	.	.	16eJJ
.	.	8BB'L)	16G#LL 16B
.	.	.	16e
8D	8V	8EE'	16G# 16B
.	.	.	16e
*-	*-	*-	*-
!!!COM: Beethoven
!!!OTL: 13 Variationen uber "Es war einmal ein alter Mann" aus "Das rote Kappchen" von K. Ditters von Dittersdorf
!!!Variation: Variation 11 c
**function	**harm	**kern	**kern
*	*	*clefF4	*clefG2
*	*	*k[f#c#g#]	*k[f#c#g#]
*M6/8	*M6/8	*M6/8	*M6/8
*A:	*A:	*A:	*A:
8D	8V	(8BBJ	16G# 16B
.	.	.	16eJJ
=422	=422	=422	=422
4.D	4.IV/V	8C#'L)	16BLL
.	.	.	16A
.	.	8AA'	16a
.	.	.	16A
.	.	(8EJ	16a
.	.	.	16AJJ
4.D	4.V7/V	8D#'L)	16BLL
.	.	.	16A
.	.	8BB'	16a
.	.	.	16A
.	.	(8F#J	16a
.	.	.	16AJJ
=423	=423	=423	=423
2.D	2.I/V	8E'L)	16BLL
.	.	.	16G#
.	.	8BB'	16g#
.	.	.	16e
.	.	(8G#J	16g#
.	.	.	16eJJ
.	.	8B'L)	16g#LL
.	.	.	16e
.	.	8G#'	16g#
.	.	.	16e
.	.	8E'J	16G#
.	.	.	16eJJ
=424	=424	=424	=424
4.D	4.IV/V	8C#'L	16r
.	.	.	16ALL
.	.	8AA'	16a
.	.	.	16A
.	.	(8EJ	16a
.	.	.	16AJJ
4.D	4.V7/V	8D#'L)	16BLL
.	.	.	16A
.	.	8BB'	16a
.	.	.	16A
.	.	(8F#J	16a
.	.	.	16AJJ
=425	=425	=425	=425
2.D	2.I/V	8E'L)	16BLL
.	.	.	16G#
.	.	8G#'	16g#
.	.	.	16e
.	.	8B'J	16g#
.	.	.	16eJJ
.	.	8E'	16g#LL
.	.	.	16e
.	.	8r	16g#
.	.	.	16e
.	.	8r	16g#
.	.	.	16eJJ
=426	=426	=426	=426
4.D	4.IV/V	8C#'L	16r
.	.	.	16aLL
.	.	8AA'	16aa
.	.	.	16a
.	.	(8EJ	16aa
.	.	.	16aJJ
4.D	4.V7/V	8D#'L)	16bLL
.	.	.	16a
.	.	8BB'	16aa
.	.	.	16a
.	.	(8F#J	16aa
.	.	.	16aJJ
=427	=427	=427	=427
2.D	2.I/V	8E'L)	16bLL
.	.	.	16g#
.	.	8BB'	16gg#
.	.	.	16ee
.	.	(8G#J	16gg#
.	.	.	16eeJJ
.	.	8B'L)	16gg#LL
.	.	.	16ee
.	.	8G#'	16gg#
.	.	.	16ee
.	.	8E'J	16g#
.	.	.	16eeJJ
=428	=428	=428	=428
4.D	4.IV/V	8C#'L	16r
.	.	.	16aLL
.	.	8AA'	16aa
.	.	.	16a
.	.	(8EJ	16aa
.	.	.	16aJJ
4.D	4.V7/V	8D#'L)	16bLL
.	.	.	16a
.	.	8BB'	16aa
.	.	.	16a
.	.	(8F#J	16aa
.	.	.	16aJJ
=429	=429	=429	=429
4.D	4.I/V	8E'L)	16bLL
.	.	.	16g#
.	.	8BB'	16gg#
.	.	.	16ee
.	.	(8G#J	16gg#
.	.	.	16eeJJ
4.D	4.V7/V	8F#'L)	16dd#LL
.	.	.	16b
.	.	8BB'	16bb
.	.	.	16b
.	.	(8AJ	16bb
.	.	.	16bJJ
=430	=430	=430	=430
4.D	4.Ic/V	8G#'L)	16eeLL
.	.	.	16b
.	.	8BB'	16bb
.	.	.	16b
.	.	(8EJ	16bb
.	.	.	16bJJ
4.D	4.V/V	8BB'L)	16ff#LL
.	.	.	16b
.	.	8BB'	16bb
.	.	.	16b
.	.	8D#'J	16bb
.	.	.	16bJJ
=431	=431	=431	=431
2.D	2.r	2.r;	2.r;
=432	=432	=432	=432
4.D	4.I/V	4E	4.r
.	.	8r	.
4D	4I/V	4r	4r
*-	*-	*-	*-
!!!COM: Beethoven
!!!OTL: 13 Variationen uber "Es war einmal ein alter Mann" aus "Das rote Kappchen" von K. Ditters von Dittersdorf
!!!Variation: Variation 11 d
**function	**harm	**kern	**kern
*	*	*clefF4	*clefG2
*	*	*k[f#c#g#]	*k[f#c#g#]
*M6/8	*M6/8	*M6/8	*M6/8
*A:	*A:	*A:	*A:
8D	8V	8E'	8r
=433	=433	=433	=433
4.D	4.V	4E'	4.r
.	.	8E'	.
4.D	4.V/ii	4F#'	4.A# 4.f# 4.a#
.	.	8C#'	.
=434	=434	=434	=434
4.D	4.iib	4D'	4.B 4.f# 4.b
.	.	8BB'	.
4.D	4.V	4E'	4.B 4.e 4.f#
.	.	8D'	.
=435	=435	=435	=435
4.D	4.Ib	4C#'	4.c# 4.e 4.a
.	.	8AA'	.
*	*	*	*^
4D	4V7d	4D'	4.e	(4g#
8D	8Ib	8C#'	.	8a)
=436	=436	=436	=436	=436
4D	4V7c	4BB'	4.e	(4dd
8D	8I	8AA'	.	8cc#)
4D	4V	8E'	4e	4b
*	*	*	*v	*v
.	.	8r	.
*-	*-	*-	*-
!!!COM: Beethoven
!!!OTL: 13 Variationen uber "Es war einmal ein alter Mann" aus "Das rote Kappchen" von K. Ditters von Dittersdorf
!!!Variation: Variation 11 e
**function	**harm	**kern	**kern
*	*	*clefF4	*clefG2
*	*	*k[f#c#g#]	*k[f#c#g#]
*M6/8	*M6/8	*M6/8	*M6/8
*A:	*A:	*A:	*A:
8T	8V	8EE'	8r
=437	=437	=437	=437
2.T	2.I	8AA'L	16eeLL
.	.	.	16e
.	.	8EE'	16f#
.	.	.	16e
.	.	(8BBJ	16f#
.	.	.	16eJJ
.	.	8C#'L)	16eeLL
.	.	.	16e
.	.	8AA'	16f#
.	.	.	16e
.	.	(8DJ	16f#
.	.	.	16eJJ
=438	=438	=438	=438
2.T	2.Vc	8E'L)	16eeLL
.	.	.	16e
.	.	8BB'	16f#
.	.	.	16e
.	.	(8F#J	16f#
.	.	.	16eJJ
.	.	8E'L)	16g#LL
.	.	.	16e
.	.	8BB'	16f#
.	.	.	16e
.	.	(8DJ	16f#
.	.	.	16eJJ
=439	=439	=439	=439
2.T	2.I	8C#'L)	16aLL
.	.	.	16e
.	.	8AA'	16f#
.	.	.	16e
.	.	(8BBJ	16f#
.	.	.	16eJJ
.	.	8C#'L)	16eeLL
.	.	.	16e
.	.	8AA'	16f#
.	.	.	16e
.	.	(8DJ	16f#
.	.	.	16eJJ
=440	=440	=440	=440
2.T	2.Vc	8E'L)	16eeLL
.	.	.	16e
.	.	8BB'	16f#
.	.	.	16e
.	.	(8F#J	16f#
.	.	.	16eJJ
.	.	8E'L)	16g#LL
.	.	.	16e
.	.	8BB'	16f#
.	.	.	16e
.	.	(8DJ	16f#
.	.	.	16eJJ
=441	=441	=441	=441
4.T	4.I	8C#'L)	16aLL
.	.	.	16e
.	.	8AA'	16f#
.	.	.	16e
.	.	(8C#J	16f#
.	.	.	16eJJ
4.D	4.V7	8BB'L)	16g#LL
.	.	.	16d
.	.	8EE'	16e
.	.	.	16d
.	.	8BBJ	16e
.	.	.	16dJJ
=442	=442	=442	=442
2T	2I	8AA'L	4c# 4a
.	.	(8A	.
.	.	8F#J	8r
.	.	8E'L)	8r
4T	4IV	(8F#	(8aL
.	.	8DJ	8f#J)
=443	=443	=443	=443
4.T	4.I	8C#'L)	16ALL
.	.	.	16e
.	.	8AA'	16A
.	.	.	16e
.	.	(8C#J	16A
.	.	.	16eJJ
4.T	4.V7	8BB'L)	16dLL 16g#
.	.	.	16e
.	.	8EE'	16d 16g#
.	.	.	16e
.	.	(8BBJ	16d 16g#
.	.	.	16eJJ
=444	=444	=444	=444
2T	2I	8AA'L)	4c# 4a
.	.	(8A	.
.	.	8F#J	8r
.	.	8E'L)	8r
4T	4IV	(8F#	(8aL
.	.	8DJ	8f#J)
=445	=445	=445	=445
4.T	4.I	8C#'L)	16ALL
.	.	.	16e
.	.	8AA'	16A
.	.	.	16e
.	.	(8C#J	16A
.	.	.	16eJJ
4.T	4.V7	8BB'L)	16dLL 16g#
.	.	.	16e
.	.	8EE'	16d 16g#
.	.	.	16e
.	.	(8BBJ	16d 16g#
.	.	.	16eJJ
=446	=446	=446	=446
2.T	2.I	8AA'L)	4c# 4a
.	.	8EE'	.
.	.	8CC#'J	8r
.	.	4AAA	4r
.	.	8r	8r
*-	*-	*-	*-
!!!COM: Beethoven
!!!OTL: 13 Variationen uber "Es war einmal ein alter Mann" aus "Das rote Kappchen" von K. Ditters von Dittersdorf
!!!Variation: Variation 12 a
**function	**harm	**kern	**kern
*	*	*clefF4	*clefG2
*	*	*k[f#c#g#]	*k[f#c#g#]
*M4/4	*M4/4	*M4/4	*M4/4
*A:	*A:	*A:	*A:
4T	4V	4r	4e
=447	=447	=447	=447
1T	1I	8AL 8c#	(4.a
.	.	8A 8c#	.
.	.	8A 8c#	.
.	.	8AJ 8c#	8b
.	.	8AL 8e	4.cc#
.	.	8A 8e	.
.	.	8A 8e	.
.	.	8AJ 8e	8dd
=448	=448	=448	=448
2T	2V7d/V	8AL 8B	4dd#
.	.	8A 8B	.
.	.	8A 8B	[4ee
.	.	8AJ 8B	.
2T	2V7b	8G#L 8e	8eeL])
.	.	8G# 8e	(8ee#
.	.	8G# 8e	8ff#
.	.	8G#J 8e	8ddJ)
=449	=449	=449	=449
2T	2I	(8AL	(8ddL
.	.	8e)	8cc#J)
.	.	8E	8r
.	.	8c#J	8a'
4T	4V7c	8BL	(8g#L 8ee
.	.	8e	8ddJ)
4T	4I	8A	8r
.	.	8eJ	8a' 8cc#'
=450	=450	=450	=450
4D	4V	4E	8g#' 8b'
.	.	.	8r
*-	*-	*-	*-
!!!COM: Beethoven
!!!OTL: 13 Variationen uber "Es war einmal ein alter Mann" aus "Das rote Kappchen" von K. Ditters von Dittersdorf
!!!Variation: Variation 12 a2
**function	**harm	**kern	**kern
*	*	*clefF4	*clefG2
*	*	*k[f#c#g#]	*k[f#c#g#]
*M4/4	*M4/4	*M4/4	*M4/4
*A:	*A:	*A:	*A:
2.T	2.V	4r	(8dd#L
.	.	.	8eeJ)
.	.	2r	(8dd#L
.	.	.	8ee)
.	.	.	(8dd#
.	.	.	8eeJ)
=451	=451	=451	=451
1T	1I	8AL 8c#	4a'
.	.	8A 8c#	.
.	.	.	q8b
.	.	8A 8c#	(16aLL
.	.	.	16g#
.	.	8AJ 8c#	16a
.	.	.	16bJJ
.	.	8AL 8e	4cc#')
.	.	8A 8e	.
.	.	.	q8dd
.	.	8A 8e	(16cc#LL
.	.	.	16b
.	.	8AJ 8e	16cc#
.	.	.	16ddJJ
=452	=452	=452	=452
2T	2V7d/V	8AL 8B	4dd#
.	.	8A 8B	.
.	.	8A 8B	[4ee
.	.	8AJ 8B	.
2T	2V7b	8G#L 8e	16eeLL])
.	.	.	(16ee#
.	.	8G# 8e	16ff#
.	.	.	16eeJJ
.	.	8G# 8e	16gg#LL
.	.	.	16ff#
.	.	8G#J 8e	16ee
.	.	.	16ddJJ)
=453	=453	=453	=453
2T	2I	16ALL	(8ddL
.	.	16e	.
.	.	16d#	8cc#J)
.	.	16eJJ	.
.	.	16c#LL	8r
.	.	16e	.
.	.	16d#	8a'
.	.	16eJJ	.
4T	4V7c	16BLL	(8g#L 8ee
.	.	16e	.
.	.	16d#	8ddJ)
.	.	16eJJ	.
4T	4I	16ALL	8r
.	.	16e	.
.	.	16d#	8a' 8cc#'
.	.	16eJJ	.
=454	=454	=454	=454
4D	4V	4E	8g#' 8b'
.	.	.	8r
*-	*-	*-	*-
!!!COM: Beethoven
!!!OTL: 13 Variationen uber "Es war einmal ein alter Mann" aus "Das rote Kappchen" von K. Ditters von Dittersdorf
!!!Variation: Variation 12 b
**function	**harm	**kern	**kern
*	*	*clefF4	*clefG2
*	*	*k[f#c#g#]	*k[f#c#g#]
*M4/4	*M4/4	*M4/4	*M4/4
*A:	*A:	*A:	*A:
2.D	2.V	4r	(8dd#L
.	.	.	8eeJ)
.	.	2r	(8dd#L
.	.	.	8ee)
.	.	.	(8dd#
.	.	.	8eeJ)
=455	=455	=455	=455
1D	1Vb/V	8D#L 8B	(4.b
.	.	8D# 8B	.
.	.	8D# 8B	.
.	.	8D#J 8B	8dd#
.	.	8D#L 8B	4.ff#
.	.	8D# 8B	.
.	.	8D# 8B	.
.	.	8D#J 8B	8a
=456	=456	=456	=456
1D	1V	8EL 8B	4g#')
.	.	8E 8B	.
.	.	8E 8B	(16g#LL
.	.	.	16b
.	.	8EJ 8B	16a
.	.	.	16g#JJ
.	.	8EL 8B	16aLL
.	.	.	16b
.	.	8E 8B	16cc#
.	.	.	16dd#JJ
.	.	8E 8B	4ee')
.	.	8EJ 8B	.
=457	=457	=457	=457
1D	1Vb/V	8D#L 8B	(16bLL
.	.	.	16cc#
.	.	8D# 8B	16b
.	.	.	16a#JJ
.	.	8D# 8B	16bLL
.	.	.	16cc#
.	.	8D#J 8B	16dd#
.	.	.	16eeJJ
.	.	8D#L 8B	16ff#LL
.	.	.	16gg#
.	.	8D# 8B	16ff#
.	.	.	16eeJJ
.	.	8D# 8B	16dd#LL
.	.	.	16cc#
.	.	8D#J 8B	16b
.	.	.	16aJJ
=458	=458	=458	=458
2D	2V	8EL 8B	4g#')
.	.	8E 8B	.
.	.	8E 8B	(16g#LL
.	.	.	16b
.	.	8EJ 8B	16a
.	.	.	16g#JJ
4D	4Vc/V	8F#L 8B	16aLL
.	.	.	16b
.	.	8F# 8B	16cc#
.	.	.	16dd#JJ
8D	8Vb	8G# 8B	8eeL)
*-	*-	*-	*-
!!!COM: Beethoven
!!!OTL: 13 Variationen uber "Es war einmal ein alter Mann" aus "Das rote Kappchen" von K. Ditters von Dittersdorf
!!!Variation: Variation 12 c
**function	**harm	**kern	**kern
*	*	*clefF4	*clefG2
*	*	*k[f#c#g#]	*k[f#c#g#]
*M4/4	*M4/4	*M4/4	*M4/4
*A:	*A:	*A:	*A:
8D	8Vb	8G#J 8B	8bJ
=459	=459	=459	=459
2D	2ii7b/V	4A	(8b#L
.	.	.	8cc#
.	.	8r	8ff#
.	.	8A	8eeJ)
2D	2V7/V	4B	(8eeL
.	.	.	8dd#
.	.	8r	8gg#
.	.	8B 8a	8ff#J)
=460	=460	=460	=460
1D	1I/V	4e 4g#	(8ff#L
.	.	.	8ee)
.	.	4r	(8aa#
.	.	.	8bbJ)
.	.	2r	(8aa#L
.	.	.	8bb)
.	.	.	(8aa#
.	.	.	8bbJ)
=461	=461	=461	=461
2D	2ii7b/V	4A	(16b#LL
.	.	.	16cc#
.	.	.	16dd#
.	.	.	16cc#JJ
.	.	8r	8ff#L
.	.	8A	8eeJ)
2D	2V7/V	4B	16r
.	.	.	(16dd#LL
.	.	.	16cc##
.	.	.	16dd#JJ)
.	.	8r	(8gg#L
.	.	8B 8a	8ff#J)
=462	=462	=462	=462
1D	1I/V	4e 4g#	16r
.	.	.	(16eeLL
.	.	.	16dd#
.	.	.	16eeJJ)
.	.	4r	(8aa#L
.	.	.	8bbJ)
.	.	2r	(8aa#L
.	.	.	8bb)
.	.	.	(8aa#
.	.	.	8bbJ)
=463	=463	=463	=463
*	*	*clefG2	*
2D	2ii7b/V	4A	16b#LL
.	.	.	16cc#
.	.	.	16dd#
.	.	.	16cc#JJ
.	.	8r	16ff#LL
.	.	.	16ee
.	.	8A	16ff#
.	.	.	16eeJJ
2D	2V7/V	4B	16r
.	.	.	16dd#LL
.	.	.	16cc##
.	.	.	16dd#JJ
.	.	8r	16gg#LL
.	.	.	16ff#
.	.	8B 8a	16gg#
.	.	.	16ff#JJ
=464	=464	=464	=464
1D	1I/V	4e 4g#	16r
.	.	.	16eeLL
.	.	.	16dd#
.	.	.	16eeJJ
.	.	4r	16aa#LL
.	.	.	16bb
.	.	.	16aa#
.	.	.	16bbJJ
.	.	2r	16aa#LL
.	.	.	16bb
.	.	.	16aa#
.	.	.	16bbJJ
.	.	.	16aa#LL
.	.	.	16bb
.	.	.	16aa#
.	.	.	16bbJJ
=465	=465	=465	=465
2D	2ii7b/V	8AL	16b#LL
.	.	.	16cc#
.	.	8a	16dd#
.	.	.	16cc#JJ
.	.	8a	16ff#LL
.	.	.	16ee
.	.	8aJ	16ff#
.	.	.	16eeJJ
2D	2V7d/V	8aL 8b	16r
.	.	.	16dd#LL
.	.	8a 8b	16cc##
.	.	.	16dd#JJ
.	.	8a 8b	16gg#LL
.	.	.	16ff#
.	.	8aJ 8b	16gg#
.	.	.	16ff#JJ
=466	=466	=466	=466
2D	2Ib/V	8g#L 8b	16r
.	.	.	16eeLL
.	.	8g# 8b	16dd#
.	.	.	16eeJJ
.	.	8g# 8b	16aaLL
.	.	.	16gg#
.	.	8g#J 8b	16aa
.	.	.	16gg#JJ
2D	2V7b/V	8d#L 8b	16r
.	.	.	16ff#LL
.	.	8d# 8b	16ee#
.	.	.	16ff#JJ
.	.	8d# 8b	16bbLL
.	.	.	16aa
.	.	8d#J 8b	16bb
.	.	.	16aaJJ
=467	=467	=467	=467
2D	2I/V	8eL 8b	16gg#LL
.	.	.	16aa
.	.	8e 8b	16gg#
.	.	.	16ff#JJ
.	.	8e 8b	16gg#LL
.	.	.	16bb
.	.	8eJ 8b	16gg#
.	.	.	16eeJJ
2D	2V7/V	8BL 8a	16dd#LL
.	.	.	16ee
.	.	8B 8a	16dd#
.	.	.	16cc#JJ
.	.	8B 8a	16dd#LL
.	.	.	16ff#
.	.	8BJ 8a	16dd#
.	.	.	16bJJ
=468	=468	=468	=468
1D	1r	1r;	1r;
=469	=469	=469	=469
*	*	*clefF4	*
1D	1I/V	(4.EE	1r
.	.	8FF#	.
.	.	8GG#L	.
.	.	8AA	.
.	.	8BB	.
.	.	8C#J	.
=470	=470	=470	=470
1D	1I/V	8D#L	4r
.	.	8E	.
.	.	4r	8F#
.	.	.	8G#J
.	.	2r	8A#L
.	.	.	8B
.	.	.	8c#
.	.	.	8d#J)
*-	*-	*-	*-
!!!COM: Beethoven
!!!OTL: 13 Variationen uber "Es war einmal ein alter Mann" aus "Das rote Kappchen" von K. Ditters von Dittersdorf
!!!Variation: Variation 12 d
**function	**harm	**kern	**kern
*	*	*clefF4	*clefG2
*	*	*k[f#c#g#]	*k[f#c#g#]
*M4/4	*M4/4	*M4/4	*M4/4
*A:	*A:	*A:	*A:
=471	=471	=471	=471
1P	1V7b/ii	8A#L 8c#	2e
.	.	8A# 8c#	.
.	.	8A# 8c#	.
.	.	8A#J 8c#	.
.	.	8A#L 8f#	(4.ff#
.	.	8A# 8f#	.
.	.	8A# 8f#	.
.	.	8A#J 8f#	8cc#)
=472	=472	=472	=472
2P	2ii	8BL 8f#	(4.dd
.	.	8B 8f#	.
.	.	8B 8f#	.
.	.	8BJ 8f#	8dd#
2D	2Vb	8G#L 8e	4.ee
.	.	8G# 8e	.
.	.	8G# 8e	.
.	.	8G#J 8e	8b
=473	=473	=473	=473
2D	2I	16ALL	8ddL
.	.	16e	.
.	.	16d#	8cc#J)
.	.	16eJJ	.
.	.	16c#LL	8r
.	.	16e	.
.	.	16d#	8a'
.	.	16eJJ	.
4D	4V7c	16BLL	(8g#L 8ee
.	.	16e	.
.	.	16d#	8ddJ)
.	.	16eJJ	.
4D	4I	16ALL	8r
.	.	16e	.
.	.	16d#	8a' 8cc#'
.	.	16eJJ	.
=474	=474	=474	=474
4D	4V	4E	8g#' 8b'
.	.	.	8r
*-	*-	*-	*-
!!!COM: Beethoven
!!!OTL: 13 Variationen uber "Es war einmal ein alter Mann" aus "Das rote Kappchen" von K. Ditters von Dittersdorf
!!!Variation: Variation 12 e
**function	**harm	**kern	**kern
*	*	*clefF4	*clefG2
*	*	*k[f#c#g#]	*k[f#c#g#]
*M4/4	*M4/4	*M4/4	*M4/4
*A:	*A:	*A:	*A:
2.T	2.V	4r	(8ddd#L
.	.	.	8eeeJ)
.	.	2r	(8ddd#L
.	.	.	8eee)
.	.	.	(8ddd#
.	.	.	8eeeJ)
=475	=475	=475	=475
1T	1I	8AL 8c#	(4.a
.	.	8A 8c#	.
.	.	8A 8c#	.
.	.	8AJ 8c#	8b
.	.	8AL 8e	4.cc#
.	.	8A 8e	.
.	.	8A 8e	.
.	.	8AJ 8e	8dd
=476	=476	=476	=476
2T	2V7d/V	8AL 8B	4dd#
.	.	8A 8B	.
.	.	8A 8B	[4ee
.	.	8AJ 8B	.
2T	2V7b	8G#L 8e	8eeL])
.	.	8G# 8e	(8ee#
.	.	8G# 8e	8ff#
.	.	8G#J 8e	8ddJ)
=477	=477	=477	=477
1T	1I	8AL 8e	4cc#'
.	.	8A 8e	.
.	.	8A 8e	(16cc#LL
.	.	.	16b
.	.	8AJ 8e	16a
.	.	.	16g#JJ
.	.	8AL 8c#	4a')
.	.	8A 8c#	.
.	.	8A 8c#	(16aLL
.	.	.	16b
.	.	8AJ 8c#	16cc#
.	.	.	16ddJJ
=478	=478	=478	=478
2T	2V7d/V	8AL 8B	4ee')
.	.	8A 8B	.
.	.	8A 8B	(16eeLL
.	.	.	16ff#
.	.	8AJ 8B	16ee
.	.	.	16dd#JJ
2T	2V7b	8AL 8e	16eeLL
.	.	.	16ee#
.	.	8A 8e	16ff#
.	.	.	16eeJJ
.	.	8A 8e	16gg#LL
.	.	.	16ff#
.	.	8AJ 8e	16ee
.	.	.	16ddJJ)
=479	=479	=479	=479
2T	2I	8AL 8e	16cc#LL
.	.	.	16dd
.	.	8A	16cc#
.	.	.	16bJJ
.	.	8A	16cc#LL
.	.	.	16dd
.	.	8AJ	16ee
.	.	.	16cc#JJ
2D	2V7	8EL 8d	16bLL
.	.	.	16cc#
.	.	8E	16dd
.	.	.	16bJJ
.	.	8E	16g#LL
.	.	.	16a
.	.	8EJ	16b
.	.	.	16g#JJ
=480	=480	=480	=480
4T	4I	16AALL	4a
.	.	16A	.
.	.	16G#	.
.	.	16AJJ	.
4T	4IV	16DLL	16aaLL
.	.	16A	16ff#
.	.	16G#	16aa
.	.	16AJJ	16ff#JJ
4T	4Ib	16C#LL	4ee'
.	.	16A	.
.	.	16G#	.
.	.	16AJJ	.
4T	4IVb	16F#LL	(16eeLL
.	.	16A	16dd
.	.	16G#	16ee
.	.	16AJJ	16ddJJ)
=481	=481	=481	=481
2T	2Ic	16ELL	16cc#LL
.	.	16A	16dd
.	.	16c#	16cc#
.	.	16AJJ	16bJJ
.	.	16ELL	16cc#LL
.	.	16A	16dd
.	.	16c#	16ee
.	.	16AJJ	16cc#JJ
2T	2V7	16ELL	16bLL
.	.	16G#	16cc#
.	.	16B	16b
.	.	16G#JJ	16aJJ
.	.	16ELL	16bLL
.	.	16G#	16cc#
.	.	16B	16dd
.	.	16G#JJ	16bJJ
=482	=482	=482	=482
4T	4I	16AALL	4a'
.	.	16A	.
.	.	16G#	.
.	.	16AJJ	.
4T	4IV	16DLL	(16aaLL
.	.	16A	16ff#
.	.	16G#	16aa
.	.	16AJJ	16ff#JJ)
4T	4Ib	16C#LL	4ee'
.	.	16A	.
.	.	16G#	.
.	.	16AJJ	.
4T	4IVb	16F#LL	(16eeLL
.	.	16A	16dd
.	.	16G#	16ee
.	.	16AJJ	16ddJJ)
=483	=483	=483	=483
2T	2Ic	16ELL	16cc#LL
.	.	16A	16dd
.	.	16c#	16cc#
.	.	16eJJ	16bJJ
.	.	16ELL	16cc#LL
.	.	16A	16dd
.	.	16c#	16ee
.	.	16eJJ	16cc#JJ
2T	2V7	16ELL	16bLL
.	.	16G#	16cc#
.	.	16B	16b
.	.	16dJJ	16aJJ
.	.	16ELL	16bLL
.	.	16G#	16cc#
.	.	16B	16dd
.	.	16dJJ	16bJJ
=484	=484	=484	=484
1T	1r	1r;	1r;
*-	*-	*-	*-
!!!COM: Beethoven
!!!OTL: 13 Variationen uber "Es war einmal ein alter Mann" aus "Das rote Kappchen" von K. Ditters von Dittersdorf
!!!Variation: Variation 12 e2
**function	**harm	**kern	**kern
*	*	*clefF4	*clefG2
*	*	*k[f#c#g#]	*k[f#c#g#]
*M6/8	*M6/8	*M6/8	*M6/8
*A:	*A:	*A:	*A:
=485	=485	=485	=485
2.T	2.I	(8AAL	(4a'
.	.	8E	.
.	.	8EEJ	8b'
.	.	8AAL	4cc#'
.	.	8E	.
.	.	8EEJ)	8dd')
=486	=486	=486	=486
2.T	2.V	(8BBL	[4.ee
.	.	8E	.
.	.	8EEJ	.
.	.	8GG#L	4ee]
.	.	8E	.
.	.	8EEJ)	8dd
=487	=487	=487	=487
.	.	.	q8dd
2.T	2.I	(8AAL	(4cc#'
.	.	8E	.
.	.	8EEJ	8b'
.	.	8AAL	4cc#'
.	.	8E	.
.	.	8EEJ)	8dd')
=488	=488	=488	=488
2.T	2.V7	(8BBL	[4.ee
.	.	8E	.
.	.	8EEJ	.
.	.	8DL	4ee]
.	.	8E	.
.	.	8EEJ)	(8ee
=489	=489	=489	=489
2.T	2.I	(8AAL 8C#	(4aa')
.	.	8E	.
.	.	8EEJ	8bb'
.	.	8AAL 8C#	4ccc#'
.	.	8E	.
.	.	8EEJ)	8ddd')
=490	=490	=490	=490
2.T	2.V	(8BBL 8D	([4.eee
.	.	8E	.
.	.	8EEJ	.
.	.	8GG#L 8BB	4eee]
.	.	8E	.
.	.	8EEJ)	8ddd
=491	=491	=491	=491
4.T	4.I	(8AAL 8C#	4ccc#)
.	.	8E	.
.	.	8EEJ	8r
4.T	4.V7	8GG#L 8D	4r
.	.	8E	.
.	.	8EEJ)	(8bb
=492	=492	=492	=492
4.T	4.I	(8AAL 8C#	4aa)
.	.	8E	.
.	.	8EEJ	8r
4.T	4.V7	8GG#L 8BB	4r
.	.	8E	.
.	.	8EEJ)	(8dd
=493	=493	=493	=493
4.T	4.I	(8AAL 8C#	4cc#)
.	.	8E	.
.	.	8EEJ	8r
4.T	4.V7	8GG#L 8D	4r
.	.	8E	.
.	.	8EEJ)	(8b
=494	=494	=494	=494
4.T	4.I	(8AAL 8C#	4a)
.	.	8E	.
.	.	8EEJ	8r
4.T	4.V7	8GG#L 8BB	4r
.	.	8E	.
.	.	8EEJ)	(8d
=495	=495	=495	=495
4.T	4.I	(8AAL 8C#	4c#)
.	.	8E	.
.	.	8EEJ	8r
4.T	4.V7	8GG#L 8D	4r
.	.	8E	.
.	.	8EEJ)	(8B
=496	=496	=496	=496
2.T	2.I	[2.AA [2.C# [2.E	(4A')
.	.	.	8B'
.	.	.	4c#'
.	.	.	8d')
=497	=497	=497	=497
2.T	2.I	2.AA] 2.C#] 2.E]	4e
.	.	.	8r
.	.	.	4.r
=498	=498	=498	=498
2.T	2.I	[2.AA [2.C# [2.E	(4A'
.	.	.	8B'
.	.	.	4c#'
.	.	.	8d')
=499	=499	=499	=499
4.T	4.I	4.AA] 4.C#] 4.E]	4.e
4.T	4.V	4.EE 4.BB	4.E 4.G# 4.e
=500	=500	=500	=500
2.T	2.I	2.AAA; 2.AA;	2.E; 2.A; 2.c#;
*-	*-	*-	*-
!!!COM: Beethoven
!!!OTL: 13 Variationen uber "Es war einmal ein alter Mann" aus "Das rote Kappchen" von K. Ditters von Dittersdorf
!!!Variation: Variation 13 a
**function	**harm	**kern	**kern
*	*	*clefF4	*clefG2
*	*	*k[f#c#g#]	*k[f#c#g#]
*M4/4	*M4/4	*M4/4	*M4/4
*A:	*A:	*A:	*A:
4T	4V	4r	8.e'L
.	.	.	16e'Jk
=501	=501	=501	=501
1T	1I	8.AA'L	2c# 2e 2a
.	.	16A'Jk	.
.	.	8.E'L	.
.	.	16C#'Jk	.
.	.	4AA'	8.a'L
.	.	.	16b'Jk
.	.	4r	8.cc#'L
.	.	.	16dd'Jk
=502	=502	=502	=502
1T	1V	8.GG#'L	2e 2b 2ee
.	.	16AA'Jk	.
.	.	8.BB'L	.
.	.	16GG#'Jk	.
.	.	4EE'	8.ee'L
.	.	.	16ff#'Jk
.	.	4r	8.ee'L
.	.	.	16dd'Jk
=503	=503	=503	=503
2T	2I	8.AA'L	4..e 4..cc#
.	.	16C#'Jk	.
.	.	8.E'L	.
.	.	16A'Jk	16a'
4T	4V7b	8.G#'L	8.e'L 8.dd'
.	.	16G#'Jk	16b'Jk
4T	4I	8.A'L	8.e'L 8.cc#'
.	.	16A'Jk	16a'Jk
=504	=504	=504	=504
2.D	2.V	4E'	4g#' 4b'
.	.	8.E'L 8.B'	8.g#'L 8.ee'
.	.	16E'Jk 16B'	16g#'Jk 16gg#'
.	.	4E' 4B'	4g#' 4ee'
*-	*-	*-	*-
!!!COM: Beethoven
!!!OTL: 13 Variationen uber "Es war einmal ein alter Mann" aus "Das rote Kappchen" von K. Ditters von Dittersdorf
!!!Variation: Variation 13 a2
**function	**harm	**kern	**kern
*	*	*clefF4	*clefG2
*	*	*k[f#c#g#]	*k[f#c#g#]
*M4/4	*M4/4	*M4/4	*M4/4
*A:	*A:	*A:	*A:
4T	4V	4r	8.e'L
.	.	.	16e'Jk
=505	=505	=505	=505
1T	1I	8.AAL	2c# 2e 2a
.	.	16AJk	.
.	.	8.EL	.
.	.	16C#Jk	.
.	.	4AA	8.a'L
.	.	.	16b'Jk
.	.	4r	8.cc#'L
.	.	.	16dd'Jk
=506	=506	=506	=506
1T	1V	8.GG#L	2e 2b 2ee
.	.	16AAJk	.
.	.	8.BBL	.
.	.	16GG#Jk	.
.	.	4EE	8.ee'L
.	.	.	16ff#'Jk
.	.	4r	8.ee'L
.	.	.	16dd'Jk
=507	=507	=507	=507
2T	2I	8.AAL	4..e 4..cc#
.	.	16C#Jk	.
.	.	8.EL	.
.	.	16AJk	16a'
4T	4V7b	8.G#L	8.e'L 8.dd'
.	.	16G#Jk	16b'Jk
4T	4I	8.AL	8.e'L 8.cc#'
.	.	16AJk	16a'Jk
=508	=508	=508	=508
2.D	2.V	4E	4g#' 4b'
.	.	8.EL 8.B	8.g#'L 8.ee'
.	.	16EJk 16B	16g#'Jk 16gg#'
.	.	4E 4B	4g#' 4ee'
*-	*-	*-	*-
!!!COM: Beethoven
!!!OTL: 13 Variationen uber "Es war einmal ein alter Mann" aus "Das rote Kappchen" von K. Ditters von Dittersdorf
!!!Variation: Variation 13 b
**function	**harm	**kern	**kern
*	*	*clefF4	*clefG2
*	*	*k[f#c#g#]	*k[f#c#g#]
*M4/4	*M4/4	*M4/4	*M4/4
*A:	*A:	*A:	*A:
4D	4V	4r	8.bL
.	.	.	16bJk
=509	=509	=509	=509
1D	1V7/V	8.D#L	2.B 2.f# 2.b
.	.	16EJk	.
.	.	8.F#L	.
.	.	16D#Jk	.
.	.	4BB	.
.	.	4r	8.BL 8.f# 8.a
.	.	.	16BJk 16f# 16a
=510	=510	=510	=510
1D	1Vc	8.E'L	2.B 2.e 2.g#
.	.	16F#'Jk	.
.	.	8.G#'L	.
.	.	16E'Jk	.
.	.	4BB'	.
.	.	4r	8.BL 8.b
.	.	.	16BJk 16b
=511	=511	=511	=511
1D	1V7/V	8.D#'L	2.B 2.f# 2.b
.	.	16E'Jk	.
.	.	8.F#'L	.
.	.	16D#'Jk	.
.	.	4BB'	.
.	.	4r	8.BL 8.f# 8.a
.	.	.	16BJk 16f# 16a
=512	=512	=512	=512
2.D	2.Vc	8.EL	2.B 2.e 2.g#
.	.	16F#Jk	.
.	.	8.G#L	.
.	.	16EJk	.
.	.	4BB'	.
*-	*-	*-	*-
!!!COM: Beethoven
!!!OTL: 13 Variationen uber "Es war einmal ein alter Mann" aus "Das rote Kappchen" von K. Ditters von Dittersdorf
!!!Variation: Variation 13 c
**function	**harm	**kern	**kern
*	*	*clefF4	*clefG2
*	*	*k[f#c#g#]	*k[f#c#g#]
*M4/4	*M4/4	*M4/4	*M4/4
*A:	*A:	*A:	*A:
4D	4Vb	8.GG#L 8.E	8.BL 8.b
.	.	16GG#Jk 16E	16BJk 16b
=513	=513	=513	=513
4D	4IV/V	4AA' 4E'	4c#' 4b'
4D	4iib/V	8.AA'L 8.F#'	8.c#'L 8.a'
.	.	16AA'Jk 16F#'	16c#'Jk 16a'
2D	2V7/V	4BB' 4F#'	4d#' 4a'
.	.	8.BB'L 8.F#'	8.d#'L 8.a'
.	.	16BB'Jk 16F#'	16d#'Jk 16a'
=514	=514	=514	=514
2.D	2.I/V	4E'	4e' 4g#'
.	.	8.E'L 8.B'	8.g#'L 8.ee'
.	.	16E'Jk 16B'	16g#'Jk 16gg#'
.	.	4E 4B	4g#' 4ee'
4D	4Ib/V	8.G#L 8.e	8.b'L
.	.	16G#Jk 16e	16b'Jk
=515	=515	=515	=515
4D	4IV/V	4A' 4e'	4b' 4cc#'
4D	4ii7b/V	8.AL 8.f#	8.a'L 8.cc#'
.	.	16AJk 16f#	16a'Jk 16ee'
2D	2V7/V	4B 4f#	4a' 4dd#'
.	.	8.B'L	8.a'L 8.dd#'
.	.	16B'Jk	16a'Jk 16ff#'
=516	=516	=516	=516
2.D	2.I/V	4E' 4e'	4g#' 4ee'
.	.	8.E'L 8.B'	8.g#'L 8.ee'
.	.	16E'Jk 16B'	16g#'Jk 16gg#'
.	.	4E' 4B'	4g#' 4ee'
4D	4Ib/V	8.GG#'L 8.E'	8.B'L 8.b'
.	.	16GG#'Jk 16E'	16B'Jk 16b'
=517	=517	=517	=517
4D	4IV/V	4AA' 4E'	4c#' 4b'
4D	4iib/V	8.AA'L 8.F#'	8.c#'L 8.a'
.	.	16AA'Jk 16F#'	16c#'Jk 16a'
2D	2V7/V	4BB' 4F#'	4d#' 4a'
.	.	8.BB'L 8.F#'	8.d#'L 8.a'
.	.	16BB'Jk 16F#'	16d#'Jk 16a'
=518	=518	=518	=518
2.D	2.I/V	4E'	4e' 4g#'
.	.	8.EL 8.B	8.g#'L 8.ee'
.	.	16EJk 16B	16g#'Jk 16gg#'
.	.	4E 4B	4g#' 4ee'
4D	4Ib/V	8.G#L 8.e	8.bL
.	.	16G#Jk 16e	16bJk
=519	=519	=519	=519
2D	2IV/V	2A 2e	4b' 4cc#'
.	.	.	[8.aL 8.cc#
.	.	.	16aJk] 16ee
2D	2V7d/V	4A' 4B'	4f#' 4dd#'
.	.	8.A'L 8.B'	8.f#'L 8.dd#'
.	.	16A'Jk 16B'	16f#'Jk 16ff#'
=520	=520	=520	=520
2D	2Ib/V	2G# 2B	4g# 4ee
.	.	.	8.eeL
.	.	.	16gg#Jk
2D	2V7b/V	4D# 4B	4a 4ff#
.	.	8.D#L 8.B	8.aL 8.ff#
.	.	16D#Jk 16B	16aJk 16aa
=521	=521	=521	=521
2.D	2.I/V	4E 4B	4g# 4gg#
.	.	8.G#L 8.B	8.eL 8.ee
.	.	16G#Jk 16B	16eJk 16ee
.	.	4B'	4b'
4D	4V7/V	4BB' 4B'	4f# 4a 4dd#
=522	=522	=522	=522
1D	1r	1r;	1r;
=523	=523	=523	=523
2.D	2.I/V	4EE 4GG# 4BB 4E	4e 4g# 4b 4ee
.	.	4r	8.eL
.	.	.	16eJk
.	.	4r	4e
*-	*-	*-	*-
!!!COM: Beethoven
!!!OTL: 13 Variationen uber "Es war einmal ein alter Mann" aus "Das rote Kappchen" von K. Ditters von Dittersdorf
!!!Variation: Variation 13 d
**function	**harm	**kern	**kern
*	*	*clefF4	*clefG2
*	*	*k[f#c#g#]	*k[f#c#g#]
*M4/4	*M4/4	*M4/4	*M4/4
*A:	*A:	*A:	*A:
4D	4V	8.c#L	8.eeL
.	.	16c#Jk	16eeJk
=524	=524	=524	=524
1D	1V7/ii	8.A#'L	2f# 2ee
.	.	16B'Jk	.
.	.	8.c#'L	.
.	.	16A#'Jk	.
.	.	4F#'	4f#' 4ff#'
.	.	4r	8.f#'L 8.a#' 8.cc#'
.	.	.	16f#'Jk 16a#' 16cc#'
=525	=525	=525	=525
2D	2ii	8.BL	2f# 2b 2dd
.	.	16A#Jk	.
.	.	8.BL	.
.	.	16dJk	.
2D	2V7b	4G#	4e 4b 4ee
.	.	4r	8.eL 8.b 8.dd
.	.	.	16eJk 16b 16dd
=526	=526	=526	=526
4D	4I	4A'	4e' 4a' 4cc#'
4D	4Ib	8.C#'L 8.A'	8.e'L 8.a'
.	.	16C#'Jk 16A'	16e'Jk 16a'
4D	4V7c	4BB' 4G#'	4e' 4dd'
4D	4I	8.AA'L 8.A'	8.e'L 8.cc#'
.	.	16AA'Jk 16A'	16e'Jk 16cc#'
=527	=527	=527	=527
2.D	2.V	4E' 4G#'	4e' 4b'
.	.	8.E'L 8.B'	8.g#'L 8.ee'
.	.	16E'Jk 16B'	16g#'Jk 16gg#'
.	.	4E' 4B'	4g#' 4ee'
*-	*-	*-	*-
!!!COM: Beethoven
!!!OTL: 13 Variationen uber "Es war einmal ein alter Mann" aus "Das rote Kappchen" von K. Ditters von Dittersdorf
!!!Variation: Variation 13 e
**function	**harm	**kern	**kern
*	*	*clefF4	*clefG2
*	*	*k[f#c#g#]	*k[f#c#g#]
*M4/4	*M4/4	*M4/4	*M4/4
*A:	*A:	*A:	*A:
4T	4V	(16ELL	8.e'L
.	.	16D	.
.	.	16C#	.
.	.	16BBJJ)	16e'Jk
=528	=528	=528	=528
1T	1I	8.AA'L	2c# 2e 2a
.	.	16A'Jk	.
.	.	8.E'L	.
.	.	16C#'Jk	.
.	.	4AA'	8.a'L
.	.	.	16b'Jk
.	.	4r	8.cc#'L
.	.	.	16dd'Jk
=529	=529	=529	=529
1T	1V	8.GG#'L	2e 2b 2ee
.	.	16AA'Jk	.
.	.	8.BB'L	.
.	.	16GG#'Jk	.
.	.	4EE'	8.ee'L
.	.	.	16ff#'Jk
.	.	4r	8.ee'L
.	.	.	16dd'Jk
=530	=530	=530	=530
1T	1I	8.AA'L	2e 2a 2cc#
.	.	16C#'Jk	.
.	.	8.E'L	.
.	.	16A'Jk	.
.	.	4AA'	8.a'L
.	.	.	16b'Jk
.	.	4r	8.cc#'L
.	.	.	16dd'Jk
=531	=531	=531	=531
1T	1V	8.GG#'L	2e 2b 2ee
.	.	16AA'Jk	.
.	.	8.BB'L	.
.	.	16GG#'Jk	.
.	.	4EE'	8.ee'L
.	.	.	16ff#'Jk
.	.	4r	8.ee'L
.	.	.	16dd'Jk
=532	=532	=532	=532
2T	2I	4AA'	4e' 4cc#'
.	.	8.A'L	8.e'L 8.cc#'
.	.	16A'Jk	16e'Jk 16cc#'
2D	2V7	4E'	4d' 4b'
.	.	8.E'L	8.d'L 8.g#' 8.b'
.	.	16E'Jk	16d'Jk 16g#' 16b'
=533	=533	=533	=533
1T	1I	4AA'	8.c#'L 8.a'
.	.	.	16aa'Jk
.	.	4r	8.gg#'L
.	.	.	16ff#'Jk
.	.	8.r	8.ee'L
.	.	16d	16a'Jk 16ff#'
.	.	8.c#L	8.a'L 8.ee'
.	.	16BJk	16a'Jk 16dd'
=534	=534	=534	=534
4P	4I	4A'	4a' 4cc#'
4P	4Ib	8.C#'L 8.A'	8.e'L 8.cc#'
.	.	16C#'Jk 16A'	16e'Jk 16cc#'
2D	4V7	4E' 4A'	4e' 4b'
.	.	8.E'L 8.G#'	8.d'L 8.b'
.	.	16E'Jk 16G#'	16d'Jk 16b'
=535	=535	=535	=535
1T	1I	8.AA'L	4c#' 4a'
.	.	16A'Jk	.
.	.	8.G#'L	4r
.	.	16F#'Jk	.
.	.	8.E'L	8.r
.	.	16D'Jk	16a' 16ff#'
.	.	8.C#'L	8.a'L 8.ee'
.	.	16BB'Jk	16a'Jk 16dd'
=536	=536	=536	=536
4P	4I	4AA'	4a' 4cc#'
4P	4Ib	8.C#'L	8.e'L 8.a' 8.cc#'
.	.	16C#'Jk	16e'Jk 16a' 16cc#'
2D	2V7	4E'	4e' 4a' 4b'
.	.	8.EE'L	8.d'L 8.g#' 8.b'
.	.	16EE'Jk	16d'Jk 16g#' 16b'
=537	=537	=537	=537
1T	1I	4AA'	4c#' 4a'
.	.	8.AA'L 8.E'	8.c#'L 8.a'
.	.	16AA'Jk 16E'	16c#'Jk 16cc#'
.	.	4AA' 4E'	4c#' 4a'
.	.	4r	4r
==538	==538	==538	==538
*-	*-	*-	*-
